romo9840/igusRebelRTMove/results/jointstates.csv
1738061229,221582345,,joint2,joint3,joint1,joint4,joint5,joint6,-0.6574654972683308,0.6068509889079117,0.0012217304815975172,0.00017453292129831807,-0.003316125537177334,-3.12413936106985,0.0,0.07854312656727194,0.0,0.0,0.0,0.0,nan,nan,nan,nan,nan,nan
1738061229,241573085,,joint2,joint3,joint1,joint4,joint5,joint6,-0.6574654972683308,0.6068509889079117,0.0012217304815975172,0.00017453292129831807,-0.003316125537177334,-3.12413936106985,0.0,0.0,0.0,0.0,0.0,0.0,nan,nan,nan,nan,nan,nan
1738061229,261576104,,joint2,joint3,joint1,joint4,joint5,joint6,-0.6574654972683308,0.6091199355776319,0.0012217304815975172,0.00017453292129831807,-0.003316125537177334,-3.12413936106985,0.0,0.11343060814284023,0.0,0.0,0.0,0.0,nan,nan,nan,nan,nan,nan
1738061229,281586005,,joint2,joint3,joint1,joint4,joint5,joint6,-0.6574654972683308,0.6112143120378974,0.0012217304815975172,0.00017453292129831807,-0.003316125537177334,-3.12413936106985,0.0,0.10468380104763735,0.0,0.0,0.0,0.0,nan,nan,nan,nan,nan,nan
1738061229,301579625,,joint2,joint3,joint1,joint4,joint5,joint6,-0.6574654972683308,0.6124360371879712,0.0012217304815975172,0.00017453292129831807,-0.003316125537177334,-3.12413936106985,0.0,0.061098385533218016,0.0,0.0,0.0,0.0,nan,nan,nan,nan,nan,nan
1738061229,321576456,,joint2,joint3,joint1,joint4,joint5,joint6,-0.6574654972683308,0.6124360371879712,0.0012217304815975172,0.00017453292129831807,-0.003316125537177334,-3.12413936106985,0.0,0.0,0.0,0.0,0.0,0.0,nan,nan,nan,nan,nan,nan
1738061229,341580866,,joint2,joint3,joint1,joint4,joint5,joint6,-0.6574654972683308,0.6141813398083548,0.0012217304815975172,0.00017453292129831807,-0.003316125537177334,-3.12413936106985,0.0,0.08725880475583152,0.0,0.0,0.0,0.0,nan,nan,nan,nan,nan,nan
1738061229,361580726,,joint2,joint3,joint1,joint4,joint5,joint6,-0.6574654972683308,0.6159267090077655,0.0012217304815975172,0.00017453292129831807,-0.003316125537177334,-3.12413936106985,0.0,0.08726736912842123,0.0,0.0,0.0,0.0,nan,nan,nan,nan,nan,nan
1738061229,381582697,,joint2,joint3,joint1,joint4,joint5,joint6,-0.6574654972683308,0.6159267090077655,0.0012217304815975172,0.00017453292129831807,-0.003316125537177334,-3.12413936106985,0.0,0.0,0.0,0.0,0.0,0.0,nan,nan,nan,nan,nan,nan
1738061229,401580356,,joint2,joint3,joint1,joint4,joint5,joint6,-0.6574654972683308,0.6176720116281489,0.0012217304815975172,0.00017453292129831807,-0.003316125537177334,-3.12413936106985,0.0,0.08726718616140489,0.0,0.0,0.0,0.0,nan,nan,nan,nan,nan,nan
1738061229,421577596,,joint2,joint3,joint1,joint4,joint5,joint6,-0.6574654972683308,0.6187192331477952,0.0012217304815975172,0.00017453292129831807,-0.003316125537177334,-3.12413936106985,0.0,0.05236827662035095,0.0,0.0,0.0,0.0,nan,nan,nan,nan,nan,nan
1738061229,441580397,,joint2,joint3,joint1,joint4,joint5,joint6,-0.6574654972683308,0.6204645357681787,0.0012217304815975172,0.00017453292129831807,-0.003316125537177334,-3.12413936106985,0.0,0.08725832050726072,0.0,0.0,0.0,0.0,nan,nan,nan,nan,nan,nan
1738061229,461577137,,joint2,joint3,joint1,joint4,joint5,joint6,-0.6574654972683308,0.6204645357681787,0.0012217304815975172,0.00017453292129831807,-0.003316125537177334,-3.12413936106985,0.0,0.0,0.0,0.0,0.0,0.0,nan,nan,nan,nan,nan,nan
1738061229,481576988,,joint2,joint3,joint1,joint4,joint5,joint6,-0.6574654972683308,0.6218608311277072,0.0012217304815975172,0.00017453292129831807,-0.003316125537177334,-3.12413936106985,0.0,0.06981532300824063,0.0,0.0,0.0,0.0,nan,nan,nan,nan,nan,nan
1738061229,501576038,,joint2,joint3,joint1,joint4,joint5,joint6,-0.6574654972683308,0.6227334824378989,0.0012217304815975172,0.00017453292129831807,-0.003316125537177334,-3.12413936106985,0.0,0.043632609142197305,0.0,0.0,0.0,0.0,nan,nan,nan,nan,nan,nan
1738061229,521590947,,joint2,joint3,joint1,joint4,joint5,joint6,-0.6574654972683308,0.6243042814278549,0.0012217304815975172,0.00017453292129831807,-0.003316125537177334,-3.12413936106985,0.0,0.07847799504460878,0.0,0.0,0.0,0.0,nan,nan,nan,nan,nan,nan
1738061229,541580758,,joint2,joint3,joint1,joint4,joint5,joint6,-0.6574654972683308,0.6243042814278549,0.0012217304815975172,0.00017453292129831807,-0.003316125537177334,-3.12413936106985,0.0,0.0,0.0,0.0,0.0,0.0,nan,nan,nan,nan,nan,nan
1738061229,561581568,,joint2,joint3,joint1,joint4,joint5,joint6,-0.6574654972683308,0.6257005102083563,0.0012217304815975172,0.00017453292129831807,-0.003316125537177334,-3.12413936106985,0.0,0.06980815804164131,0.0,0.0,0.0,0.0,nan,nan,nan,nan,nan,nan
1738061229,581576818,,joint2,joint3,joint1,joint4,joint5,joint6,-0.6574654972683308,0.6267477317280027,0.0012217304815975172,0.00017453292129831807,-0.003316125537177334,-3.12413936106985,0.0,0.05237094790600148,0.0,0.0,0.0,0.0,nan,nan,nan,nan,nan,nan
1738061229,601569389,,joint2,joint3,joint1,joint4,joint5,joint6,-0.6574654972683308,0.6283185307179586,0.0012217304815975172,0.00017453292129831807,-0.003316125537177334,-3.12413936106985,0.0,0.07855239612496275,0.0,0.0,0.0,0.0,nan,nan,nan,nan,nan,nan
1738061229,621567389,,joint2,joint3,joint1,joint4,joint5,joint6,-0.6574654972683308,0.6283185307179586,0.0012217304815975172,0.00017453292129831807,-0.003316125537177334,-3.12413936106985,0.0,0.0,0.0,0.0,0.0,0.0,nan,nan,nan,nan,nan,nan
1738061229,641573940,,joint2,joint3,joint1,joint4,joint5,joint6,-0.6574654972683308,0.630063833338342,0.0012217304815975172,0.00017453292129831807,-0.003316125537177334,-3.12413936106985,0.0,0.08724601977853827,0.0,0.0,0.0,0.0,nan,nan,nan,nan,nan,nan
1738061229,661582329,,joint2,joint3,joint1,joint4,joint5,joint6,-0.6574654972683308,0.6311110548579885,0.0012217304815975172,0.00017453292129831807,-0.003316125537177334,-3.12413936106985,0.0,0.05234092734234077,0.0,0.0,0.0,0.0,nan,nan,nan,nan,nan,nan
1738061229,681583249,,joint2,joint3,joint1,joint4,joint5,joint6,-0.6574654972683308,0.6311110548579885,0.0012217304815975172,0.00017453292129831807,-0.003316125537177334,-3.12413936106985,0.0,0.0,0.0,0.0,0.0,0.0,nan,nan,nan,nan,nan,nan
1738061229,701574240,,joint2,joint3,joint1,joint4,joint5,joint6,-0.6574654972683308,0.6330309276878267,0.0012217304815975172,0.00017453292129831807,-0.003316125537177334,-3.12413936106985,0.0,0.09603416310703237,0.0,0.0,0.0,0.0,nan,nan,nan,nan,nan,nan
1738061229,721574650,,joint2,joint3,joint1,joint4,joint5,joint6,-0.6574654972683308,0.6347762303082101,0.0012217304815975172,0.00017453292129831807,-0.003316125537177334,-3.12413936106985,0.0,0.08725439872812721,0.0,0.0,0.0,0.0,nan,nan,nan,nan,nan,nan
1738061229,741582100,,joint2,joint3,joint1,joint4,joint5,joint6,-0.6574654972683308,0.6359979554582839,0.0012217304815975172,0.00017453292129831807,-0.003316125537177334,-3.12413936106985,0.0,0.06107401216425075,0.0,0.0,0.0,0.0,nan,nan,nan,nan,nan,nan
1738061229,761581971,,joint2,joint3,joint1,joint4,joint5,joint6,-0.6574654972683308,0.6359979554582839,0.0012217304815975172,0.00017453292129831807,-0.003316125537177334,-3.12413936106985,0.0,0.0,0.0,0.0,0.0,0.0,nan,nan,nan,nan,nan,nan
1738061229,781581150,,joint2,joint3,joint1,joint4,joint5,joint6,-0.6574654972683308,0.637917828288122,0.0012217304815975172,0.00017453292129831807,-0.003316125537177334,-3.12413936106985,0.0,0.0959954222069913,0.0,0.0,0.0,0.0,nan,nan,nan,nan,nan,nan
1738061229,801576701,,joint2,joint3,joint1,joint4,joint5,joint6,-0.6574654972683308,0.6396631974875326,0.0012217304815975172,0.00017453292129831807,-0.003316125537177334,-3.12413936106985,0.0,0.08728303187270094,0.0,0.0,0.0,0.0,nan,nan,nan,nan,nan,nan
1738061229,821577601,,joint2,joint3,joint1,joint4,joint5,joint6,-0.6574654972683308,0.6408849226376065,0.0012217304815975172,0.00017453292129831807,-0.003316125537177334,-3.12413936106985,0.0,0.061080943461614065,0.0,0.0,0.0,0.0,nan,nan,nan,nan,nan,nan
1738061229,841583701,,joint2,joint3,joint1,joint4,joint5,joint6,-0.6574654972683308,0.6408849226376065,0.0012217304815975172,0.00017453292129831807,-0.003316125537177334,-3.12413936106985,0.0,0.0,0.0,0.0,0.0,0.0,nan,nan,nan,nan,nan,nan
1738061229,861580132,,joint2,joint3,joint1,joint4,joint5,joint6,-0.6574654972683308,0.6428047954674446,0.0012217304815975172,0.00017453292129831807,-0.003316125537177334,-3.12413936106985,0.0,0.09600741375540701,0.0,0.0,0.0,0.0,nan,nan,nan,nan,nan,nan
1738061229,881584192,,joint2,joint3,joint1,joint4,joint5,joint6,-0.6574654972683308,0.644201024247946,0.0012217304815975172,0.00017453292129831807,-0.003316125537177334,-3.12413936106985,0.0,0.06980267878888124,0.0,0.0,0.0,0.0,nan,nan,nan,nan,nan,nan
1738061229,901583101,,joint2,joint3,joint1,joint4,joint5,joint6,-0.6574654972683308,0.6457718232379019,0.0012217304815975172,0.00017453292129831807,-0.003316125537177334,-3.12413936106985,0.0,0.07853233578784212,0.0,0.0,0.0,0.0,nan,nan,nan,nan,nan,nan
1738061229,921582272,,joint2,joint3,joint1,joint4,joint5,joint6,-0.6574654972683308,0.6457718232379019,0.0012217304815975172,0.00017453292129831807,-0.003316125537177334,-3.12413936106985,0.0,0.0,0.0,0.0,0.0,0.0,nan,nan,nan,nan,nan,nan
1738061229,941589422,,joint2,joint3,joint1,joint4,joint5,joint6,-0.6574654972683308,0.6459463268683294,0.0012217304815975172,0.00017453292129831807,-0.003316125537177334,-3.12413936106985,0.0,0.008723000771181232,0.0,0.0,0.0,0.0,nan,nan,nan,nan,nan,nan
1738061229,961582472,,joint2,joint3,joint1,joint4,joint5,joint6,-0.6574654972683308,0.6462954007082115,0.0012217304815975172,0.00017453292129831807,-0.003316125537177334,-3.12413936106985,0.0,0.017459155836920683,0.0,0.0,0.0,0.0,nan,nan,nan,nan,nan,nan
1738061229,981593213,,joint2,joint3,joint1,joint4,joint5,joint6,-0.6574654972683308,0.6462954007082115,0.0012217304815975172,0.00017453292129831807,-0.003316125537177334,-3.12413936106985,0.0,0.0,0.0,0.0,0.0,0.0,nan,nan,nan,nan,nan,nan
1738061230,1595453,,joint2,joint3,joint1,joint4,joint5,joint6,-0.6574654972683308,0.6461208970777841,0.0012217304815975172,0.00017453292129831807,-0.003316125537177334,-3.12413936106985,0.0,-0.00872459697337126,0.0,0.0,0.0,0.0,nan,nan,nan,nan,nan,nan
1738061230,21592034,,joint2,joint3,joint1,joint4,joint5,joint6,-0.6574654972683308,0.6457718232379019,0.0012217304815975172,0.00017453292129831807,-0.003316125537177334,-3.12413936106985,0.0,-0.017456143709491063,0.0,0.0,0.0,0.0,nan,nan,nan,nan,nan,nan
1738061230,41581464,,joint2,joint3,joint1,joint4,joint5,joint6,-0.6574654972683308,0.6455973196074745,0.0012217304815975172,0.00017453292129831807,-0.003316125537177334,-3.12413936106985,0.0,-0.008731389539336493,0.0,0.0,0.0,0.0,nan,nan,nan,nan,nan,nan
1738061230,61582324,,joint2,joint3,joint1,joint4,joint5,joint6,-0.6574654972683308,0.6455973196074745,0.0012217304815975172,0.00017453292129831807,-0.003316125537177334,-3.12413936106985,0.0,0.0,0.0,0.0,0.0,0.0,nan,nan,nan,nan,nan,nan
1738061230,81574145,,joint2,joint3,joint1,joint4,joint5,joint6,-0.6574654972683308,0.6450736755581377,0.0012217304815975172,0.00017453292129831807,-0.003316125537177334,-3.12413936106985,0.0,-0.026191643244647643,0.0,0.0,0.0,0.0,nan,nan,nan,nan,nan,nan
1738061230,101577435,,joint2,joint3,joint1,joint4,joint5,joint6,-0.6574654972683308,0.6448991719277102,0.0012217304815975172,0.00017453292129831807,-0.003316125537177334,-3.12413936106985,0.0,-0.008723476081800035,0.0,0.0,0.0,0.0,nan,nan,nan,nan,nan,nan
1738061230,121577026,,joint2,joint3,joint1,joint4,joint5,joint6,-0.6574654972683308,0.6447246017182555,0.0012217304815975172,0.00017453292129831807,-0.003316125537177334,-3.12413936106985,0.0,-0.008728702067743429,0.0,0.0,0.0,0.0,nan,nan,nan,nan,nan,nan
1738061230,141574936,,joint2,joint3,joint1,joint4,joint5,joint6,-0.6574654972683308,0.6447246017182555,0.0012217304815975172,0.00017453292129831807,-0.003316125537177334,-3.12413936106985,0.0,0.0,0.0,0.0,0.0,0.0,nan,nan,nan,nan,nan,nan
1738061230,161573398,,joint2,joint3,joint1,joint4,joint5,joint6,-0.6574654972683308,0.6448991719277102,0.0012217304815975172,0.00017453292129831807,-0.003316125537177334,-3.12413936106985,0.0,0.008728989694267258,0.0,0.0,0.0,0.0,nan,nan,nan,nan,nan,nan
1738061230,181582008,,joint2,joint3,joint1,joint4,joint5,joint6,-0.6574654972683308,0.6452482457675923,0.0012217304815975172,0.00017453292129831807,-0.003316125537177334,-3.12413936106985,0.0,0.017446286045680676,0.0,0.0,0.0,0.0,nan,nan,nan,nan,nan,nan
1738061230,201572478,,joint2,joint3,joint1,joint4,joint5,joint6,-0.6574654972683308,0.6454227493980198,0.0012217304815975172,0.00017453292129831807,-0.003316125537177334,-3.12413936106985,0.0,0.008729144553001089,0.0,0.0,0.0,0.0,nan,nan,nan,nan,nan,nan
1738061230,221572529,,joint2,joint3,joint1,joint4,joint5,joint6,-0.6574654972683308,0.6454227493980198,0.0012217304815975172,0.00017453292129831807,-0.003316125537177334,-3.12413936106985,0.0,0.0,0.0,0.0,0.0,0.0,nan,nan,nan,nan,nan,nan
1738061230,241572589,,joint2,joint3,joint1,joint4,joint5,joint6,-0.6574654972683308,0.6455973196074745,0.0012217304815975172,0.00017453292129831807,-0.003316125537177334,-3.12413936106985,0.0,0.008728471194612666,0.0,0.0,0.0,0.0,nan,nan,nan,nan,nan,nan
1738061230,261582760,,joint2,joint3,joint1,joint4,joint5,joint6,-0.6574654972683308,0.6459463268683294,0.0012217304815975172,0.00017453292129831807,-0.003316125537177334,-3.12413936106985,0.0,0.017442112051642023,0.0,0.0,0.0,0.0,nan,nan,nan,nan,nan,nan
1738061230,281581070,,joint2,joint3,joint1,joint4,joint5,joint6,-0.6574654972683308,0.6459463268683294,0.0012217304815975172,0.00017453292129831807,-0.003316125537177334,-3.12413936106985,0.0,0.0,0.0,0.0,0.0,0.0,nan,nan,nan,nan,nan,nan
1738061230,301577870,,joint2,joint3,joint1,joint4,joint5,joint6,-0.6574654972683308,0.6471681185974305,0.0012217304815975172,0.00017453292129831807,-0.003316125537177334,-3.12413936106985,0.0,0.06109902625461058,0.0,0.0,0.0,0.0,nan,nan,nan,nan,nan,nan
1738061230,321576871,,joint2,joint3,joint1,joint4,joint5,joint6,-0.6574654972683308,0.6487388510083593,0.0012217304815975172,0.00017453292129831807,-0.003316125537177334,-3.12413936106985,0.0,0.07853995456750912,0.0,0.0,0.0,0.0,nan,nan,nan,nan,nan,nan
1738061230,341575692,,joint2,joint3,joint1,joint4,joint5,joint6,-0.6574654972683308,0.6499606427374603,0.0012217304815975172,0.00017453292129831807,-0.003316125537177334,-3.12413936106985,0.0,0.06109706779100526,0.0,0.0,0.0,0.0,nan,nan,nan,nan,nan,nan
1738061230,361577203,,joint2,joint3,joint1,joint4,joint5,joint6,-0.6574654972683308,0.6499606427374603,0.0012217304815975172,0.00017453292129831807,-0.003316125537177334,-3.12413936106985,0.0,0.0,0.0,0.0,0.0,0.0,nan,nan,nan,nan,nan,nan
1738061230,381579393,,joint2,joint3,joint1,joint4,joint5,joint6,-0.6574654972683308,0.6522295228281533,0.0012217304815975172,0.00017453292129831807,-0.003316125537177334,-3.12413936106985,0.0,0.11342370169204344,0.0,0.0,0.0,0.0,nan,nan,nan,nan,nan,nan
1738061230,401580803,,joint2,joint3,joint1,joint4,joint5,joint6,-0.6574654972683308,0.6550220469681831,0.0012217304815975172,0.00017453292129831807,-0.003316125537177334,-3.12413936106985,0.0,0.13961845817706314,0.0,0.0,0.0,0.0,nan,nan,nan,nan,nan,nan
1738061230,421577934,,joint2,joint3,joint1,joint4,joint5,joint6,-0.6574654972683308,0.6550220469681831,0.0012217304815975172,0.00017453292129831807,-0.003316125537177334,-3.12413936106985,0.0,0.0,0.0,0.0,0.0,0.0,nan,nan,nan,nan,nan,nan
1738061230,441573454,,joint2,joint3,joint1,joint4,joint5,joint6,-0.6574654972683308,0.6583382151575499,0.0012217304815975172,0.00017453292129831807,-0.003316125537177334,-3.12413936106985,0.0,0.16584572475640783,0.0,0.0,0.0,0.0,nan,nan,nan,nan,nan,nan
1738061230,461578735,,joint2,joint3,joint1,joint4,joint5,joint6,-0.6574654972683308,0.6607816654576975,0.0012217304815975172,0.00017453292129831807,-0.003316125537177334,-3.12413936106985,0.0,0.12214807928411857,0.0,0.0,0.0,0.0,nan,nan,nan,nan,nan,nan
1738061230,481573775,,joint2,joint3,joint1,joint4,joint5,joint6,-0.6574654972683308,0.6649704183782287,0.0012217304815975172,0.00017453292129831807,-0.003316125537177334,-3.12413936106985,0.0,0.20947870385251632,0.0,0.0,0.0,0.0,nan,nan,nan,nan,nan,nan
1738061230,501574365,,joint2,joint3,joint1,joint4,joint5,joint6,-0.6574654972683308,0.6649704183782287,0.0012217304815975172,0.00017453292129831807,-0.003316125537177334,-3.12413936106985,0.0,0.0,0.0,0.0,0.0,0.0,nan,nan,nan,nan,nan,nan
1738061230,521577187,,joint2,joint3,joint1,joint4,joint5,joint6,-0.6574654972683308,0.6693337415082145,0.0012217304815975172,0.00017453292129831807,-0.003316125537177334,-3.12413936106985,0.0,0.2181290636520147,0.0,0.0,0.0,0.0,nan,nan,nan,nan,nan,nan
1738061230,541582287,,joint2,joint3,joint1,joint4,joint5,joint6,-0.6574654972683308,0.6726499096975811,0.0012217304815975172,0.00017453292129831807,-0.003316125537177334,-3.12413936106985,0.0,0.16580335246608188,0.0,0.0,0.0,0.0,nan,nan,nan,nan,nan,nan
1738061230,561585458,,joint2,joint3,joint1,joint4,joint5,joint6,-0.6574654972683308,0.6778858841377586,0.0012217304815975172,0.00017453292129831807,-0.003316125537177334,-3.12413936106985,0.0,0.2617534255785805,0.0,0.0,0.0,0.0,nan,nan,nan,nan,nan,nan
1738061230,581581978,,joint2,joint3,joint1,joint4,joint5,joint6,-0.6574654972683308,0.6778858841377586,0.0012217304815975172,0.00017453292129831807,-0.003316125537177334,-3.12413936106985,0.0,0.0,0.0,0.0,0.0,0.0,nan,nan,nan,nan,nan,nan
1738061230,601580488,,joint2,joint3,joint1,joint4,joint5,joint6,-0.6574654972683308,0.6834709324178183,0.0012217304815975172,0.00017453292129831807,-0.003316125537177334,-3.12413936106985,0.0,0.2792720887216344,0.0,0.0,0.0,0.0,nan,nan,nan,nan,nan,nan
1738061230,621577749,,joint2,joint3,joint1,joint4,joint5,joint6,-0.6574654972683308,0.6888814770674506,0.0012217304815975172,0.00017453292129831807,-0.003316125537177334,-3.12413936106985,0.0,0.2705450884574537,0.0,0.0,0.0,0.0,nan,nan,nan,nan,nan,nan
1738061230,641581959,,joint2,joint3,joint1,joint4,joint5,joint6,-0.6574654972683308,0.690626779687834,0.0012217304815975172,0.00017453292129831807,-0.003316125537177334,-3.12413936106985,0.0,0.08725090912098406,0.0,0.0,0.0,0.0,nan,nan,nan,nan,nan,nan
1738061230,661580360,,joint2,joint3,joint1,joint4,joint5,joint6,-0.6574654972683308,0.690626779687834,0.0012217304815975172,0.00017453292129831807,-0.003316125537177334,-3.12413936106985,0.0,0.0,0.0,0.0,0.0,0.0,nan,nan,nan,nan,nan,nan
1738061230,681575520,,joint2,joint3,joint1,joint4,joint5,joint6,-0.6574654972683308,0.6977826269578496,0.0012217304815975172,0.00017453292129831807,-0.003316125537177334,-3.12413936106985,0.0,0.3578322617979711,0.0,0.0,0.0,0.0,nan,nan,nan,nan,nan,nan
1738061230,701573402,,joint2,joint3,joint1,joint4,joint5,joint6,-0.6574654972683308,0.7014478024080713,0.0012217304815975172,0.00017453292129831807,-0.003316125537177334,-3.12413936106985,0.0,0.18327653200703162,0.0,0.0,0.0,0.0,nan,nan,nan,nan,nan,nan
1738061230,721573132,,joint2,joint3,joint1,joint4,joint5,joint6,-0.6574654972683308,0.7068583470577035,0.0012217304815975172,0.00017453292129831807,-0.003316125537177334,-3.12413936106985,0.0,0.2705260151145419,0.0,0.0,0.0,0.0,nan,nan,nan,nan,nan,nan
1738061230,741578222,,joint2,joint3,joint1,joint4,joint5,joint6,-0.6574654972683308,0.7068583470577035,0.0012217304815975172,0.00017453292129831807,-0.003316125537177334,-3.12413936106985,0.0,0.0,0.0,0.0,0.0,0.0,nan,nan,nan,nan,nan,nan
1738061230,761577613,,joint2,joint3,joint1,joint4,joint5,joint6,-0.6574654972683308,0.7124433953377631,0.0012217304815975172,0.00017453292129831807,-0.003316125537177334,-3.12413936106985,0.0,0.2792618949443173,0.0,0.0,0.0,0.0,nan,nan,nan,nan,nan,nan
1738061230,781579543,,joint2,joint3,joint1,joint4,joint5,joint6,-0.6574654972683308,0.7162831409974394,0.0012217304815975172,0.00017453292129831807,-0.003316125537177334,-3.12413936106985,0.0,0.19197048556632615,0.0,0.0,0.0,0.0,nan,nan,nan,nan,nan,nan
1738061230,801583573,,joint2,joint3,joint1,joint4,joint5,joint6,-0.6574654972683308,0.7162831409974394,0.0012217304815975172,0.00017453292129831807,-0.003316125537177334,-3.12413936106985,0.0,0.0,0.0,0.0,0.0,0.0,nan,nan,nan,nan,nan,nan
1738061230,821582044,,joint2,joint3,joint1,joint4,joint5,joint6,-0.6574654972683308,0.7222172631173811,0.0012217304815975172,0.00017453292129831807,-0.003316125537177334,-3.12413936106985,0.0,0.29674779906285376,0.0,0.0,0.0,0.0,nan,nan,nan,nan,nan,nan
1738061230,841586624,,joint2,joint3,joint1,joint4,joint5,joint6,-0.6574654972683308,0.7279768150278683,0.0012217304815975172,0.00017453292129831807,-0.003316125537177334,-3.12413936106985,0.0,0.2879167011420664,0.0,0.0,0.0,0.0,nan,nan,nan,nan,nan,nan
1738061230,861582955,,joint2,joint3,joint1,joint4,joint5,joint6,-0.6574654972683308,0.7342600109876923,0.0012217304815975172,0.00017453292129831807,-0.003316125537177334,-3.12413936106985,0.0,0.31421665549501543,0.0,0.0,0.0,0.0,nan,nan,nan,nan,nan,nan
1738061230,881580606,,joint2,joint3,joint1,joint4,joint5,joint6,-0.6574654972683308,0.7342600109876923,0.0012217304815975172,0.00017453292129831807,-0.003316125537177334,-3.12413936106985,0.0,0.0,0.0,0.0,0.0,0.0,nan,nan,nan,nan,nan,nan
1738061230,901583537,,joint2,joint3,joint1,joint4,joint5,joint6,-0.6574654972683308,0.7386233341176781,0.0012217304815975172,0.00017453292129831807,-0.003316125537177334,-3.12413936106985,0.0,0.21813386178105204,0.0,0.0,0.0,0.0,nan,nan,nan,nan,nan,nan
1738061230,921581767,,joint2,joint3,joint1,joint4,joint5,joint6,-0.6574654972683308,0.7456046777572664,0.0012217304815975172,0.00017453292129831807,-0.003316125537177334,-3.12413936106985,0.0,0.34909144383475876,0.0,0.0,0.0,0.0,nan,nan,nan,nan,nan,nan
1738061230,941580427,,joint2,joint3,joint1,joint4,joint5,joint6,-0.6574654972683308,0.7529350286577094,0.0012217304815975172,0.00017453292129831807,-0.003316125537177334,-3.12413936106985,0.0,0.36658224678871293,0.0,0.0,0.0,0.0,nan,nan,nan,nan,nan,nan
1738061230,961578658,,joint2,joint3,joint1,joint4,joint5,joint6,-0.6574654972683308,0.7529350286577094,0.0012217304815975172,0.00017453292129831807,-0.003316125537177334,-3.12413936106985,0.0,0.0,0.0,0.0,0.0,0.0,nan,nan,nan,nan,nan,nan
1738061230,981574458,,joint2,joint3,joint1,joint4,joint5,joint6,-0.6574654972683308,0.7606145199770619,0.0012217304815975172,0.00017453292129831807,-0.003316125537177334,-3.12413936106985,0.0,0.3840275617711452,0.0,0.0,0.0,0.0,nan,nan,nan,nan,nan,nan
1738061231,1578039,,joint2,joint3,joint1,joint4,joint5,joint6,-0.6574654972683308,0.7660249980476669,0.0012217304815975172,0.00017453292129831807,-0.003316125537177334,-3.12413936106985,0.0,0.2704988688599379,0.0,0.0,0.0,0.0,nan,nan,nan,nan,nan,nan
1738061231,21577230,,joint2,joint3,joint1,joint4,joint5,joint6,-0.6574654972683308,0.7660249980476669,0.0012217304815975172,0.00017453292129831807,-0.003316125537177334,-3.12413936106985,0.0,0.0,0.0,0.0,0.0,0.0,nan,nan,nan,nan,nan,nan
1738061231,41581260,,joint2,joint3,joint1,joint4,joint5,joint6,-0.6574654972683308,0.7745771406772111,0.0012217304815975172,0.00017453292129831807,-0.003316125537177334,-3.12413936106985,0.0,0.427556017155358,0.0,0.0,0.0,0.0,nan,nan,nan,nan,nan,nan
1738061231,61580151,,joint2,joint3,joint1,joint4,joint5,joint6,-0.6574654972683308,0.7805112627971528,0.0012217304815975172,0.00017453292129831807,-0.003316125537177334,-3.12413936106985,0.0,0.29671352383518135,0.0,0.0,0.0,0.0,nan,nan,nan,nan,nan,nan
1738061231,81577502,,joint2,joint3,joint1,joint4,joint5,joint6,-0.6574654972683308,0.792903084507346,0.0012217304815975172,0.00017453292129831807,-0.003316125537177334,-3.12413936106985,0.0,0.6196570480024229,0.0,0.0,0.0,0.0,nan,nan,nan,nan,nan,nan
1738061231,101581323,,joint2,joint3,joint1,joint4,joint5,joint6,-0.6574654972683308,0.792903084507346,0.0012217304815975172,0.00017453292129831807,-0.003316125537177334,-3.12413936106985,0.0,0.0,0.0,0.0,0.0,0.0,nan,nan,nan,nan,nan,nan
1738061231,121585833,,joint2,joint3,joint1,joint4,joint5,joint6,-0.6574654972683308,0.7995353543070521,0.0012217304815975172,0.00017453292129831807,-0.003316125537177334,-3.12413936106985,0.0,0.33152895010302885,0.0,0.0,0.0,0.0,nan,nan,nan,nan,nan,nan
1738061231,141580385,,joint2,joint3,joint1,joint4,joint5,joint6,-0.6574654972683308,0.8133234047977467,0.0012217304815975172,0.00017453292129831807,-0.003316125537177334,-3.12413936106985,0.0,0.6896055444070002,0.0,0.0,0.0,0.0,nan,nan,nan,nan,nan,nan
1738061231,161578105,,joint2,joint3,joint1,joint4,joint5,joint6,-0.6574654972683308,0.8168140766175408,0.0012217304815975172,0.00017453292129831807,-0.003316125537177334,-3.12413936106985,0.0,0.17454118353118972,0.0,0.0,0.0,0.0,nan,nan,nan,nan,nan,nan
1738061231,181577837,,joint2,joint3,joint1,joint4,joint5,joint6,-0.6574654972683308,0.8168140766175408,0.0012217304815975172,0.00017453292129831807,-0.003316125537177334,-3.12413936106985,0.0,0.0,0.0,0.0,0.0,0.0,nan,nan,nan,nan,nan,nan
1738061231,201577837,,joint2,joint3,joint1,joint4,joint5,joint6,-0.6574654972683308,0.8278096695472327,0.0012217304815975172,0.00017453292129831807,-0.003316125537177334,-3.12413936106985,0.0,0.549780746046086,0.0,0.0,0.0,0.0,nan,nan,nan,nan,nan,nan
1738061231,221580587,,joint2,joint3,joint1,joint4,joint5,joint6,-0.6574654972683308,0.8393288399472342,0.0012217304815975172,0.00017453292129831807,-0.003316125537177334,-3.12413936106985,0.0,0.5758813518989205,0.0,0.0,0.0,0.0,nan,nan,nan,nan,nan,nan
1738061231,241574879,,joint2,joint3,joint1,joint4,joint5,joint6,-0.6574654972683308,0.8511970841871178,0.0012217304815975172,0.00017453292129831807,-0.003316125537177334,-3.12413936106985,0.0,0.5935581679476803,0.0,0.0,0.0,0.0,nan,nan,nan,nan,nan,nan
1738061231,261581649,,joint2,joint3,joint1,joint4,joint5,joint6,-0.6574654972683308,0.8511970841871178,0.0012217304815975172,0.00017453292129831807,-0.003316125537177334,-3.12413936106985,0.0,0.0,0.0,0.0,0.0,0.0,nan,nan,nan,nan,nan,nan
1738061231,281576710,,joint2,joint3,joint1,joint4,joint5,joint6,-0.6574654972683308,0.8595746566072072,0.0012217304815975172,0.00017453292129831807,-0.003316125537177334,-3.12413936106985,0.0,0.41896218301187205,0.0,0.0,0.0,0.0,nan,nan,nan,nan,nan,nan
1738061231,301580851,,joint2,joint3,joint1,joint4,joint5,joint6,-0.6574654972683308,0.8723155521572825,0.0012217304815975172,0.00017453292129831807,-0.003316125537177334,-3.12413936106985,0.0,0.6368995325653631,0.0,0.0,0.0,0.0,nan,nan,nan,nan,nan,nan
1738061231,321607511,,joint2,joint3,joint1,joint4,joint5,joint6,-0.6574654972683308,0.8723155521572825,0.0012217304815975172,0.00017453292129831807,-0.003316125537177334,-3.12413936106985,0.0,0.0,0.0,0.0,0.0,0.0,nan,nan,nan,nan,nan,nan
1738061231,341575313,,joint2,joint3,joint1,joint4,joint5,joint6,-0.6574654972683308,0.8894197708373438,0.0012217304815975172,0.00017453292129831807,-0.003316125537177334,-3.12413936106985,0.0,0.8565316201081092,0.0,0.0,0.0,0.0,nan,nan,nan,nan,nan,nan
1738061231,361572554,,joint2,joint3,joint1,joint4,joint5,joint6,-0.6574654972683308,0.9026843104367559,0.0012217304815975172,0.00017453292129831807,-0.003316125537177334,-3.12413936106985,0.0,0.6633078703653958,0.0,0.0,0.0,0.0,nan,nan,nan,nan,nan,nan
1738061231,381574244,,joint2,joint3,joint1,joint4,joint5,joint6,-0.6574654972683308,0.9072221371971692,0.0012217304815975172,0.00017453292129831807,-0.003316125537177334,-3.12413936106985,0.0,0.22687908654998903,0.0,0.0,0.0,0.0,nan,nan,nan,nan,nan,nan
1738061231,401576795,,joint2,joint3,joint1,joint4,joint5,joint6,-0.6574654972683308,0.9072221371971692,0.0012217304815975172,0.00017453292129831807,-0.003316125537177334,-3.12413936106985,0.0,0.0,0.0,0.0,0.0,0.0,nan,nan,nan,nan,nan,nan
1738061231,421575666,,joint2,joint3,joint1,joint4,joint5,joint6,-0.6574654972683308,0.9255480810273042,0.0012217304815975172,0.00017453292129831807,-0.003316125537177334,-3.12413936106985,0.0,0.9163123106598801,0.0,0.0,0.0,0.0,nan,nan,nan,nan,nan,nan
1738061231,441581117,,joint2,joint3,joint1,joint4,joint5,joint6,-0.6574654972683308,0.9398597755673355,0.0012217304815975172,0.00017453292129831807,-0.003316125537177334,-3.12413936106985,0.0,0.7154255090545213,0.0,0.0,0.0,0.0,nan,nan,nan,nan,nan,nan
1738061231,461575888,,joint2,joint3,joint1,joint4,joint5,joint6,-0.6574654972683308,0.9494591397165261,0.0012217304815975172,0.00017453292129831807,-0.003316125537177334,-3.12413936106985,0.0,0.4800853242743869,0.0,0.0,0.0,0.0,nan,nan,nan,nan,nan,nan
1738061231,481573828,,joint2,joint3,joint1,joint4,joint5,joint6,-0.6574654972683308,0.9494591397165261,0.0012217304815975172,0.00017453292129831807,-0.003316125537177334,-3.12413936106985,0.0,0.0,0.0,0.0,0.0,0.0,nan,nan,nan,nan,nan,nan
1738061231,501574660,,joint2,joint3,joint1,joint4,joint5,joint6,-0.6574654972683308,0.9642944117268671,0.0012217304815975172,0.00017453292129831807,-0.003316125537177334,-3.12413936106985,0.0,0.7417531417977542,0.0,0.0,0.0,0.0,nan,nan,nan,nan,nan,nan
1738061231,521575060,,joint2,joint3,joint1,joint4,joint5,joint6,-0.6574654972683308,0.9796533277865448,0.0012217304815975172,0.00017453292129831807,-0.003316125537177334,-3.12413936106985,0.0,0.7679450350388476,0.0,0.0,0.0,0.0,nan,nan,nan,nan,nan,nan
1738061231,541575721,,joint2,joint3,joint1,joint4,joint5,joint6,-0.6574654972683308,0.9796533277865448,0.0012217304815975172,0.00017453292129831807,-0.003316125537177334,-3.12413936106985,0.0,0.0,0.0,0.0,0.0,0.0,nan,nan,nan,nan,nan,nan
1738061231,561587862,,joint2,joint3,joint1,joint4,joint5,joint6,-0.6574654972683308,0.9899507730364724,0.0012217304815975172,0.00017453292129831807,-0.003316125537177334,-3.12413936106985,0.0,0.5145419008689268,0.0,0.0,0.0,0.0,nan,nan,nan,nan,nan,nan
1738061231,581578112,,joint2,joint3,joint1,joint4,joint5,joint6,-0.6574654972683308,1.006182340406342,0.0012217304815975172,0.00017453292129831807,-0.003316125537177334,-3.12413936106985,0.0,0.8119993901772832,0.0,0.0,0.0,0.0,nan,nan,nan,nan,nan,nan
1738061231,601575424,,joint2,joint3,joint1,joint4,joint5,joint6,-0.6574654972683308,1.0225884114066388,0.0012217304815975172,0.00017453292129831807,-0.003316125537177334,-3.12413936106985,0.0,0.8203416138657281,0.0,0.0,0.0,0.0,nan,nan,nan,nan,nan,nan
1738061231,621581424,,joint2,joint3,joint1,joint4,joint5,joint6,-0.6574654972683308,1.0225884114066388,0.0012217304815975172,0.00017453292129831807,-0.003316125537177334,-3.12413936106985,0.0,0.0,0.0,0.0,0.0,0.0,nan,nan,nan,nan,nan,nan
1738061231,641585565,,joint2,joint3,joint1,joint4,joint5,joint6,-0.6574654972683308,1.0335840043363307,0.0012217304815975172,0.00017453292129831807,-0.003316125537177334,-3.12413936106985,0.0,0.5497276697334206,0.0,0.0,0.0,0.0,nan,nan,nan,nan,nan,nan
1738061231,661578896,,joint2,joint3,joint1,joint4,joint5,joint6,-0.6574654972683308,1.0505136528069372,0.0012217304815975172,0.00017453292129831807,-0.003316125537177334,-3.12413936106985,0.0,0.846691937450248,0.0,0.0,0.0,0.0,nan,nan,nan,nan,nan,nan
1738061231,681578027,,joint2,joint3,joint1,joint4,joint5,joint6,-0.6574654972683308,1.0618583195765112,0.0012217304815975172,0.00017453292129831807,-0.003316125537177334,-3.12413936106985,0.0,0.5672557167167255,0.0,0.0,0.0,0.0,nan,nan,nan,nan,nan,nan
1738061231,701578667,,joint2,joint3,joint1,joint4,joint5,joint6,-0.6574654972683308,1.0618583195765112,0.0012217304815975172,0.00017453292129831807,-0.003316125537177334,-3.12413936106985,0.0,0.0,0.0,0.0,0.0,0.0,nan,nan,nan,nan,nan,nan
1738061231,721577088,,joint2,joint3,joint1,joint4,joint5,joint6,-0.6574654972683308,1.0793116120964543,0.0012217304815975172,0.00017453292129831807,-0.003316125537177334,-3.12413936106985,0.0,0.8726518852796298,0.0,0.0,0.0,0.0,nan,nan,nan,nan,nan,nan
1738061231,741577909,,joint2,joint3,joint1,joint4,joint5,joint6,-0.6574654972683308,1.0972884820867073,0.0012217304815975172,0.00017453292129831807,-0.003316125537177334,-3.12413936106985,0.0,0.8988196807911062,0.0,0.0,0.0,0.0,nan,nan,nan,nan,nan,nan
1738061231,761582710,,joint2,joint3,joint1,joint4,joint5,joint6,-0.6574654972683308,1.1150908484465327,0.0012217304815975172,0.00017453292129831807,-0.003316125537177334,-3.12413936106985,0.0,0.8899216008214115,0.0,0.0,0.0,0.0,nan,nan,nan,nan,nan,nan
1738061231,781580851,,joint2,joint3,joint1,joint4,joint5,joint6,-0.6574654972683308,1.1150908484465327,0.0012217304815975172,0.00017453292129831807,-0.003316125537177334,-3.12413936106985,0.0,0.0,0.0,0.0,0.0,0.0,nan,nan,nan,nan,nan,nan
1738061231,801578481,,joint2,joint3,joint1,joint4,joint5,joint6,-0.6574654972683308,1.1267845224769617,0.0012217304815975172,0.00017453292129831807,-0.003316125537177334,-3.12413936106985,0.0,0.5847293104076609,0.0,0.0,0.0,0.0,nan,nan,nan,nan,nan,nan
1738061231,821595903,,joint2,joint3,joint1,joint4,joint5,joint6,-0.6574654972683308,1.1447613924672144,0.0012217304815975172,0.00017453292129831807,-0.003316125537177334,-3.12413936106985,0.0,0.8981958105136746,0.0,0.0,0.0,0.0,nan,nan,nan,nan,nan,nan
1738061231,841578703,,joint2,joint3,joint1,joint4,joint5,joint6,-0.6574654972683308,1.1447613924672144,0.0012217304815975172,0.00017453292129831807,-0.003316125537177334,-3.12413936106985,0.0,0.0,0.0,0.0,0.0,0.0,nan,nan,nan,nan,nan,nan
1738061231,861579164,,joint2,joint3,joint1,joint4,joint5,joint6,-0.6574654972683308,1.1625638254060673,0.0012217304815975172,0.00017453292129831807,-0.003316125537177334,-3.12413936106985,0.0,0.8901211573760065,0.0,0.0,0.0,0.0,nan,nan,nan,nan,nan,nan
1738061231,881578655,,joint2,joint3,joint1,joint4,joint5,joint6,-0.6574654972683308,1.185776736415525,0.0012217304815975172,0.00017453292129831807,-0.003316125537177334,-3.12413936106985,0.0,1.160614155859967,0.0,0.0,0.0,0.0,nan,nan,nan,nan,nan,nan
1738061231,901574245,,joint2,joint3,joint1,joint4,joint5,joint6,-0.6574654972683308,1.191536221746985,0.0012217304815975172,0.00017453292129831807,-0.003316125537177334,-3.12413936106985,0.0,0.28800724340236855,0.0,0.0,0.0,0.0,nan,nan,nan,nan,nan,nan
1738061231,921572837,,joint2,joint3,joint1,joint4,joint5,joint6,-0.6574654972683308,1.191536221746985,0.0012217304815975172,0.00017453292129831807,-0.003316125537177334,-3.12413936106985,0.0,0.0,0.0,0.0,0.0,0.0,nan,nan,nan,nan,nan,nan
1738061231,941564347,,joint2,joint3,joint1,joint4,joint5,joint6,-0.6574654972683308,1.2082914997452183,0.0012217304815975172,0.00017453292129831807,-0.003316125537177334,-3.12413936106985,0.0,0.8382316331629748,0.0,0.0,0.0,0.0,nan,nan,nan,nan,nan,nan
1738061231,961576248,,joint2,joint3,joint1,joint4,joint5,joint6,-0.6574654972683308,1.2248720743759425,0.0012217304815975172,0.00017453292129831807,-0.003316125537177334,-3.12413936106985,0.0,0.8285112848132775,0.0,0.0,0.0,0.0,nan,nan,nan,nan,nan,nan
1738061231,981580899,,joint2,joint3,joint1,joint4,joint5,joint6,-0.6574654972683308,1.2411036417458121,0.0012217304815975172,0.00017453292129831807,-0.003316125537177334,-3.12413936106985,0.0,0.8113791343470429,0.0,0.0,0.0,0.0,nan,nan,nan,nan,nan,nan
1738061232,1579010,,joint2,joint3,joint1,joint4,joint5,joint6,-0.6574654972683308,1.2411036417458121,0.0012217304815975172,0.00017453292129831807,-0.003316125537177334,-3.12413936106985,0.0,0.0,0.0,0.0,0.0,0.0,nan,nan,nan,nan,nan,nan
1738061232,21575341,,joint2,joint3,joint1,joint4,joint5,joint6,-0.6574654972683308,1.2520991680964768,0.0012217304815975172,0.00017453292129831807,-0.003316125537177334,-3.12413936106985,0.0,0.5498455705828498,0.0,0.0,0.0,0.0,nan,nan,nan,nan,nan,nan
1738061232,41574542,,joint2,joint3,joint1,joint4,joint5,joint6,-0.6574654972683308,1.2683307354663462,0.0012217304815975172,0.00017453292129831807,-0.003316125537177334,-3.12413936106985,0.0,0.8116465062176678,0.0,0.0,0.0,0.0,nan,nan,nan,nan,nan,nan
1738061232,61572523,,joint2,joint3,joint1,joint4,joint5,joint6,-0.6574654972683308,1.2683307354663462,0.0012217304815975172,0.00017453292129831807,-0.003316125537177334,-3.12413936106985,0.0,0.0,0.0,0.0,0.0,0.0,nan,nan,nan,nan,nan,nan
1738061232,81570865,,joint2,joint3,joint1,joint4,joint5,joint6,-0.6574654972683308,1.2842132955753607,0.0012217304815975172,0.00017453292129831807,-0.003316125537177334,-3.12413936106985,0.0,0.7941533389422349,0.0,0.0,0.0,0.0,nan,nan,nan,nan,nan,nan
1738061232,101579085,,joint2,joint3,joint1,joint4,joint5,joint6,-0.6574654972683308,1.2946852444557158,0.0012217304815975172,0.00017453292129831807,-0.003316125537177334,-3.12413936106985,0.0,0.5234566341831585,0.0,0.0,0.0,0.0,nan,nan,nan,nan,nan,nan
1738061232,121582286,,joint2,joint3,joint1,joint4,joint5,joint6,-0.6574654972683308,1.3100440939363662,0.0012217304815975172,0.00017453292129831807,-0.003316125537177334,-3.12413936106985,0.0,0.7677854235241417,0.0,0.0,0.0,0.0,nan,nan,nan,nan,nan,nan
1738061232,141581368,,joint2,joint3,joint1,joint4,joint5,joint6,-0.6574654972683308,1.3100440939363662,0.0012217304815975172,0.00017453292129831807,-0.003316125537177334,-3.12413936106985,0.0,0.0,0.0,0.0,0.0,0.0,nan,nan,nan,nan,nan,nan
1738061232,161581388,,joint2,joint3,joint1,joint4,joint5,joint6,-0.6574654972683308,1.3248794991047617,0.0012217304815975172,0.00017453292129831807,-0.003316125537177334,-3.12413936106985,0.0,0.7417405887962198,0.0,0.0,0.0,0.0,nan,nan,nan,nan,nan,nan
1738061232,181582510,,joint2,joint3,joint1,joint4,joint5,joint6,-0.6574654972683308,1.3393656306961932,0.0012217304815975172,0.00017453292129831807,-0.003316125537177334,-3.12413936106985,0.0,0.7241884644330273,0.0,0.0,0.0,0.0,nan,nan,nan,nan,nan,nan
1738061232,201580601,,joint2,joint3,joint1,joint4,joint5,joint6,-0.6574654972683308,1.3486158544264744,0.0012217304815975172,0.00017453292129831807,-0.003316125537177334,-3.12413936106985,0.0,0.46256366436178037,0.0,0.0,0.0,0.0,nan,nan,nan,nan,nan,nan
1738061232,221582692,,joint2,joint3,joint1,joint4,joint5,joint6,-0.6574654972683308,1.3486158544264744,0.0012217304815975172,0.00017453292129831807,-0.003316125537177334,-3.12413936106985,0.0,0.0,0.0,0.0,0.0,0.0,nan,nan,nan,nan,nan,nan
1738061232,241578963,,joint2,joint3,joint1,joint4,joint5,joint6,-0.6574654972683308,1.3622295344447959,0.0012217304815975172,0.00017453292129831807,-0.003316125537177334,-3.12413936106985,0.0,0.6808357932561829,0.0,0.0,0.0,0.0,nan,nan,nan,nan,nan,nan
1738061232,261577834,,joint2,joint3,joint1,joint4,joint5,joint6,-0.6574654972683308,1.3753195038347534,0.0012217304815975172,0.00017453292129831807,-0.003316125537177334,-3.12413936106985,0.0,0.6545252723077782,0.0,0.0,0.0,0.0,nan,nan,nan,nan,nan,nan
1738061232,281577175,,joint2,joint3,joint1,joint4,joint5,joint6,-0.6574654972683308,1.3878857625963468,0.0012217304815975172,0.00017453292129831807,-0.003316125537177334,-3.12413936106985,0.0,0.6283301857432656,0.0,0.0,0.0,0.0,nan,nan,nan,nan,nan,nan
1738061232,301580117,,joint2,joint3,joint1,joint4,joint5,joint6,-0.6574654972683308,1.3878857625963468,0.0012217304815975172,0.00017453292129831807,-0.003316125537177334,-3.12413936106985,0.0,0.0,0.0,0.0,0.0,0.0,nan,nan,nan,nan,nan,nan
1738061232,321586317,,joint2,joint3,joint1,joint4,joint5,joint6,-0.6574654972683308,1.396088831386009,0.0012217304815975172,0.00017453292129831807,-0.003316125537177334,-3.12413936106985,0.0,0.41004477761703895,0.0,0.0,0.0,0.0,nan,nan,nan,nan,nan,nan
1738061232,341577539,,joint2,joint3,joint1,joint4,joint5,joint6,-0.6574654972683308,1.4079570756258926,0.0012217304815975172,0.00017453292129831807,-0.003316125537177334,-3.12413936106985,0.0,0.5936650539406553,0.0,0.0,0.0,0.0,nan,nan,nan,nan,nan,nan
1738061232,361580030,,joint2,joint3,joint1,joint4,joint5,joint6,-0.6574654972683308,1.4079570756258926,0.0012217304815975172,0.00017453292129831807,-0.003316125537177334,-3.12413936106985,0.0,0.0,0.0,0.0,0.0,0.0,nan,nan,nan,nan,nan,nan
1738061232,381579851,,joint2,joint3,joint1,joint4,joint5,joint6,-0.6574654972683308,1.4193017423954666,0.0012217304815975172,0.00017453292129831807,-0.003316125537177334,-3.12413936106985,0.0,0.5672321756527409,0.0,0.0,0.0,0.0,nan,nan,nan,nan,nan,nan
1738061232,401582902,,joint2,joint3,joint1,joint4,joint5,joint6,-0.6574654972683308,1.4337880071449525,0.0012217304815975172,0.00017453292129831807,-0.003316125537177334,-3.12413936106985,0.0,0.7241875547241721,0.0,0.0,0.0,0.0,nan,nan,nan,nan,nan,nan
1738061232,421576824,,joint2,joint3,joint1,joint4,joint5,joint6,-0.6574654972683308,1.4372786123857193,0.0012217304815975172,0.00017453292129831807,-0.003316125537177334,-3.12413936106985,0.0,0.17457633273254966,0.0,0.0,0.0,0.0,nan,nan,nan,nan,nan,nan
1738061232,441580244,,joint2,joint3,joint1,joint4,joint5,joint6,-0.6574654972683308,1.4372786123857193,0.0012217304815975172,0.00017453292129831807,-0.003316125537177334,-3.12413936106985,0.0,0.0,0.0,0.0,0.0,0.0,nan,nan,nan,nan,nan,nan
1738061232,461579535,,joint2,joint3,joint1,joint4,joint5,joint6,-0.6574654972683308,1.4505431519851315,0.0012217304815975172,0.00017453292129831807,-0.003316125537177334,-3.12413936106985,0.0,0.6632361989537757,0.0,0.0,0.0,0.0,nan,nan,nan,nan,nan,nan
1738061232,481579547,,joint2,joint3,joint1,joint4,joint5,joint6,-0.6574654972683308,1.4599679459248676,0.0012217304815975172,0.00017453292129831807,-0.003316125537177334,-3.12413936106985,0.0,0.4712222382028773,0.0,0.0,0.0,0.0,nan,nan,nan,nan,nan,nan
1738061232,501581657,,joint2,joint3,joint1,joint4,joint5,joint6,-0.6574654972683308,1.4631095439047797,0.0012217304815975172,0.00017453292129831807,-0.003316125537177334,-3.12413936106985,0.0,0.1570596383022636,0.0,0.0,0.0,0.0,nan,nan,nan,nan,nan,nan
1738061232,521584759,,joint2,joint3,joint1,joint4,joint5,joint6,-0.6574654972683308,1.4631095439047797,0.0012217304815975172,0.00017453292129831807,-0.003316125537177334,-3.12413936106985,0.0,0.0,0.0,0.0,0.0,0.0,nan,nan,nan,nan,nan,nan
1738061232,541588309,,joint2,joint3,joint1,joint4,joint5,joint6,-0.6574654972683308,1.4720106272161515,0.0012217304815975172,0.00017453292129831807,-0.003316125537177334,-3.12413936106985,0.0,0.4450430394926051,0.0,0.0,0.0,0.0,nan,nan,nan,nan,nan,nan
1738061232,561580631,,joint2,joint3,joint1,joint4,joint5,joint6,-0.6574654972683308,1.4831808569343252,0.0012217304815975172,0.00017453292129831807,-0.003316125537177334,-3.12413936106985,0.0,0.5586418729218259,0.0,0.0,0.0,0.0,nan,nan,nan,nan,nan,nan
1738061232,581577982,,joint2,joint3,joint1,joint4,joint5,joint6,-0.6574654972683308,1.4831808569343252,0.0012217304815975172,0.00017453292129831807,-0.003316125537177334,-3.12413936106985,0.0,0.0,0.0,0.0,0.0,0.0,nan,nan,nan,nan,nan,nan
1738061232,601578513,,joint2,joint3,joint1,joint4,joint5,joint6,-0.6574654972683308,1.4913837925659328,0.0012217304815975172,0.00017453292129831807,-0.003316125537177334,-3.12413936106985,0.0,0.4101490168925204,0.0,0.0,0.0,0.0,nan,nan,nan,nan,nan,nan
1738061232,621582004,,joint2,joint3,joint1,joint4,joint5,joint6,-0.6574654972683308,1.4940018130755353,0.0012217304815975172,0.00017453292129831807,-0.003316125537177334,-3.12413936106985,0.0,0.13086725518492304,0.0,0.0,0.0,0.0,nan,nan,nan,nan,nan,nan
1738061232,641581036,,joint2,joint3,joint1,joint4,joint5,joint6,-0.6574654972683308,1.5020303116557423,0.0012217304815975172,0.00017453292129831807,-0.003316125537177334,-3.12413936106985,0.0,0.4014746717221786,0.0,0.0,0.0,0.0,nan,nan,nan,nan,nan,nan
1738061232,661578216,,joint2,joint3,joint1,joint4,joint5,joint6,-0.6574654972683308,1.5020303116557423,0.0012217304815975172,0.00017453292129831807,-0.003316125537177334,-3.12413936106985,0.0,0.0,0.0,0.0,0.0,0.0,nan,nan,nan,nan,nan,nan
1738061232,681579318,,joint2,joint3,joint1,joint4,joint5,joint6,-0.6574654972683308,1.512502393694152,0.0012217304815975172,0.00017453292129831807,-0.003316125537177334,-3.12413936106985,0.0,0.5236095474597765,0.0,0.0,0.0,0.0,nan,nan,nan,nan,nan,nan
1738061232,701576759,,joint2,joint3,joint1,joint4,joint5,joint6,-0.6574654972683308,1.5175637313458477,0.0012217304815975172,0.00017453292129831807,-0.003316125537177334,-3.12413936106985,0.0,0.25307813190774814,0.0,0.0,0.0,0.0,nan,nan,nan,nan,nan,nan
1738061232,721577140,,joint2,joint3,joint1,joint4,joint5,joint6,-0.6574654972683308,1.5248942154043454,0.0012217304815975172,0.00017453292129831807,-0.003316125537177334,-3.12413936106985,0.0,0.36652491764847883,0.0,0.0,0.0,0.0,nan,nan,nan,nan,nan,nan
1738061232,741583771,,joint2,joint3,joint1,joint4,joint5,joint6,-0.6574654972683308,1.5248942154043454,0.0012217304815975172,0.00017453292129831807,-0.003316125537177334,-3.12413936106985,0.0,0.0,0.0,0.0,0.0,0.0,nan,nan,nan,nan,nan,nan
1738061232,761576233,,joint2,joint3,joint1,joint4,joint5,joint6,-0.6574654972683308,1.5322245663047884,0.0012217304815975172,0.00017453292129831807,-0.003316125537177334,-3.12413936106985,0.0,0.3666405162512999,0.0,0.0,0.0,0.0,nan,nan,nan,nan,nan,nan
1738061232,781581993,,joint2,joint3,joint1,joint4,joint5,joint6,-0.6574654972683308,1.539031339734922,0.0012217304815975172,0.00017453292129831807,-0.003316125537177334,-3.12413936106985,0.0,0.34023983183553097,0.0,0.0,0.0,0.0,nan,nan,nan,nan,nan,nan
1738061232,801580114,,joint2,joint3,joint1,joint4,joint5,joint6,-0.6574654972683308,1.5435692330743624,0.0012217304815975172,0.00017453292129831807,-0.003316125537177334,-3.12413936106985,0.0,0.22694059974941103,0.0,0.0,0.0,0.0,nan,nan,nan,nan,nan,nan
1738061232,821579066,,joint2,joint3,joint1,joint4,joint5,joint6,-0.6574654972683308,1.5435692330743624,0.0012217304815975172,0.00017453292129831807,-0.003316125537177334,-3.12413936106985,0.0,0.0,0.0,0.0,0.0,0.0,nan,nan,nan,nan,nan,nan
1738061232,841584316,,joint2,joint3,joint1,joint4,joint5,joint6,-0.6574654972683308,1.550376006504496,0.0012217304815975172,0.00017453292129831807,-0.003316125537177334,-3.12413936106985,0.0,0.3402660247104035,0.0,0.0,0.0,0.0,nan,nan,nan,nan,nan,nan
1738061232,861555188,,joint2,joint3,joint1,joint4,joint5,joint6,-0.6574654972683308,1.55665920246432,0.0012217304815975172,0.00017453292129831807,-0.003316125537177334,-3.12413936106985,0.0,0.3145751630364715,0.0,0.0,0.0,0.0,nan,nan,nan,nan,nan,nan
1738061232,881572768,,joint2,joint3,joint1,joint4,joint5,joint6,-0.6574654972683308,1.55665920246432,0.0012217304815975172,0.00017453292129831807,-0.003316125537177334,-3.12413936106985,0.0,0.0,0.0,0.0,0.0,0.0,nan,nan,nan,nan,nan,nan
1738061232,901577480,,joint2,joint3,joint1,joint4,joint5,joint6,-0.6574654972683308,1.5606733851753962,0.0012217304815975172,0.00017453292129831807,-0.003316125537177334,-3.12413936106985,0.0,0.20065744619567155,0.0,0.0,0.0,0.0,nan,nan,nan,nan,nan,nan
1738061232,921571111,,joint2,joint3,joint1,joint4,joint5,joint6,-0.6574654972683308,1.5667820109257655,0.0012217304815975172,0.00017453292129831807,-0.003316125537177334,-3.12413936106985,0.0,0.30551849777365453,0.0,0.0,0.0,0.0,nan,nan,nan,nan,nan,nan
1738061232,941572692,,joint2,joint3,joint1,joint4,joint5,joint6,-0.6574654972683308,1.570621756585442,0.0012217304815975172,0.00017453292129831807,-0.003316125537177334,-3.12413936106985,0.0,0.19197719458224344,0.0,0.0,0.0,0.0,nan,nan,nan,nan,nan,nan
1738061232,961572323,,joint2,joint3,joint1,joint4,joint5,joint6,-0.6574654972683308,1.570621756585442,0.0012217304815975172,0.00017453292129831807,-0.003316125537177334,-3.12413936106985,0.0,0.0,0.0,0.0,0.0,0.0,nan,nan,nan,nan,nan,nan
1738061232,981573385,,joint2,joint3,joint1,joint4,joint5,joint6,-0.6574654972683308,1.5763813750749562,0.0012217304815975172,0.00017453292129831807,-0.003316125537177334,-3.12413936106985,0.0,0.2879600185783682,0.0,0.0,0.0,0.0,nan,nan,nan,nan,nan,nan
1738061233,1575255,,joint2,joint3,joint1,joint4,joint5,joint6,-0.6574654972683308,1.5817918531455613,0.0012217304815975172,0.00017453292129831807,-0.003316125537177334,-3.12413936106985,0.0,0.27049969380765515,0.0,0.0,0.0,0.0,nan,nan,nan,nan,nan,nan
1738061233,21574807,,joint2,joint3,joint1,joint4,joint5,joint6,-0.6574654972683308,1.5852825915443824,0.0012217304815975172,0.00017453292129831807,-0.003316125537177334,-3.12413936106985,0.0,0.17454048056686314,0.0,0.0,0.0,0.0,nan,nan,nan,nan,nan,nan
1738061233,41580188,,joint2,joint3,joint1,joint4,joint5,joint6,-0.6574654972683308,1.5852825915443824,0.0012217304815975172,0.00017453292129831807,-0.003316125537177334,-3.12413936106985,0.0,0.0,0.0,0.0,0.0,0.0,nan,nan,nan,nan,nan,nan
1738061233,61572180,,joint2,joint3,joint1,joint4,joint5,joint6,-0.6574654972683308,1.590169492144678,0.0012217304815975172,0.00017453292129831807,-0.003316125537177334,-3.12413936106985,0.0,0.2444054959344751,0.0,0.0,0.0,0.0,nan,nan,nan,nan,nan,nan
1738061233,81574371,,joint2,joint3,joint1,joint4,joint5,joint6,-0.6574654972683308,1.5947073854841183,0.0012217304815975172,0.00017453292129831807,-0.003316125537177334,-3.12413936106985,0.0,0.22687832038902664,0.0,0.0,0.0,0.0,nan,nan,nan,nan,nan,nan
1738061233,101570683,,joint2,joint3,joint1,joint4,joint5,joint6,-0.6574654972683308,1.598721568195195,0.0012217304815975172,0.00017453292129831807,-0.003316125537177334,-3.12413936106985,0.0,0.20072306573459572,0.0,0.0,0.0,0.0,nan,nan,nan,nan,nan,nan
1738061233,121572544,,joint2,joint3,joint1,joint4,joint5,joint6,-0.6574654972683308,1.598721568195195,0.0012217304815975172,0.00017453292129831807,-0.003316125537177334,-3.12413936106985,0.0,0.0,0.0,0.0,0.0,0.0,nan,nan,nan,nan,nan,nan
1738061233,141574416,,joint2,joint3,joint1,joint4,joint5,joint6,-0.6574654972683308,1.6011650184953428,0.0012217304815975172,0.00017453292129831807,-0.003316125537177334,-3.12413936106985,0.0,0.12216700527545253,0.0,0.0,0.0,0.0,nan,nan,nan,nan,nan,nan
1738061233,161576047,,joint2,joint3,joint1,joint4,joint5,joint6,-0.6574654972683308,1.6044811866847093,0.0012217304815975172,0.00017453292129831807,-0.003316125537177334,-3.12413936106985,0.0,0.16579306532013116,0.0,0.0,0.0,0.0,nan,nan,nan,nan,nan,nan
1738061233,181591228,,joint2,joint3,joint1,joint4,joint5,joint6,-0.6574654972683308,1.6044811866847093,0.0012217304815975172,0.00017453292129831807,-0.003316125537177334,-3.12413936106985,0.0,0.0,0.0,0.0,0.0,0.0,nan,nan,nan,nan,nan,nan
1738061233,201573129,,joint2,joint3,joint1,joint4,joint5,joint6,-0.6574654972683308,1.607273644245712,0.0012217304815975172,0.00017453292129831807,-0.003316125537177334,-3.12413936106985,0.0,0.13974808534720534,0.0,0.0,0.0,0.0,nan,nan,nan,nan,nan,nan
1738061233,221575731,,joint2,joint3,joint1,joint4,joint5,joint6,-0.6574654972683308,1.6097172277039142,0.0012217304815975172,0.00017453292129831807,-0.003316125537177334,-3.12413936106985,0.0,0.12216462310349686,0.0,0.0,0.0,0.0,nan,nan,nan,nan,nan,nan
1738061233,241572662,,joint2,joint3,joint1,joint4,joint5,joint6,-0.6574654972683308,1.610938952853988,0.0012217304815975172,0.00017453292129831807,-0.003316125537177334,-3.12413936106985,0.0,0.061094685515551,0.0,0.0,0.0,0.0,nan,nan,nan,nan,nan,nan
1738061233,261571954,,joint2,joint3,joint1,joint4,joint5,joint6,-0.6574654972683308,1.610938952853988,0.0012217304815975172,0.00017453292129831807,-0.003316125537177334,-3.12413936106985,0.0,0.0,0.0,0.0,0.0,0.0,nan,nan,nan,nan,nan,nan
1738061233,281574465,,joint2,joint3,joint1,joint4,joint5,joint6,-0.6574654972683308,1.6125096852649168,0.0012217304815975172,0.00017453292129831807,-0.003316125537177334,-3.12413936106985,0.0,0.07852876374363074,0.0,0.0,0.0,0.0,nan,nan,nan,nan,nan,nan
1738061233,301572307,,joint2,joint3,joint1,joint4,joint5,joint6,-0.6574654972683308,1.6140805508338998,0.0012217304815975172,0.00017453292129831807,-0.003316125537177334,-3.12413936106985,0.0,0.07855061507659837,0.0,0.0,0.0,0.0,nan,nan,nan,nan,nan,nan
1738061233,321573898,,joint2,joint3,joint1,joint4,joint5,joint6,-0.6574654972683308,1.615476713035374,0.0012217304815975172,0.00017453292129831807,-0.003316125537177334,-3.12413936106985,0.0,0.0698025921787985,0.0,0.0,0.0,0.0,nan,nan,nan,nan,nan,nan
1738061233,341579610,,joint2,joint3,joint1,joint4,joint5,joint6,-0.6574654972683308,1.615476713035374,0.0012217304815975172,0.00017453292129831807,-0.003316125537177334,-3.12413936106985,0.0,0.0,0.0,0.0,0.0,0.0,nan,nan,nan,nan,nan,nan
1738061233,361575171,,joint2,joint3,joint1,joint4,joint5,joint6,-0.6574654972683308,1.6161748607151383,0.0012217304815975172,0.00017453292129831807,-0.003316125537177334,-3.12413936106985,0.0,0.03491000049275107,0.0,0.0,0.0,0.0,nan,nan,nan,nan,nan,nan
1738061233,381576583,,joint2,joint3,joint1,joint4,joint5,joint6,-0.6574654972683308,1.617047578604357,0.0012217304815975172,0.00017453292129831807,-0.003316125537177334,-3.12413936106985,0.0,0.04363047991837821,0.0,0.0,0.0,0.0,nan,nan,nan,nan,nan,nan
1738061233,401574183,,joint2,joint3,joint1,joint4,joint5,joint6,-0.6574654972683308,1.617047578604357,0.0012217304815975172,0.00017453292129831807,-0.003316125537177334,-3.12413936106985,0.0,0.0,0.0,0.0,0.0,0.0,nan,nan,nan,nan,nan,nan
1738061233,421576455,,joint2,joint3,joint1,joint4,joint5,joint6,-0.6574654972683308,1.6179201633355216,0.0012217304815975172,0.00017453292129831807,-0.003316125537177334,-3.12413936106985,0.0,0.04362563308093666,0.0,0.0,0.0,0.0,nan,nan,nan,nan,nan,nan
1738061233,441580696,,joint2,joint3,joint1,joint4,joint5,joint6,-0.6574654972683308,1.618618311015286,0.0012217304815975172,0.00017453292129831807,-0.003316125537177334,-3.12413936106985,0.0,0.03490261803573246,0.0,0.0,0.0,0.0,nan,nan,nan,nan,nan,nan
1738061233,461584018,,joint2,joint3,joint1,joint4,joint5,joint6,-0.6574654972683308,1.6191418884855955,0.0012217304815975172,0.00017453292129831807,-0.003316125537177334,-3.12413936106985,0.0,0.026173832435342947,0.0,0.0,0.0,0.0,nan,nan,nan,nan,nan,nan
1738061233,481582909,,joint2,joint3,joint1,joint4,joint5,joint6,-0.6574654972683308,1.6191418884855955,0.0012217304815975172,0.00017453292129831807,-0.003316125537177334,-3.12413936106985,0.0,0.0,0.0,0.0,0.0,0.0,nan,nan,nan,nan,nan,nan
1738061233,501573931,,joint2,joint3,joint1,joint4,joint5,joint6,-0.6574654972683308,1.6194910289045048,0.0012217304815975172,0.00017453292129831807,-0.003316125537177334,-3.12413936106985,0.0,0.01746402227199493,0.0,0.0,0.0,0.0,nan,nan,nan,nan,nan,nan
1738061233,521578832,,joint2,joint3,joint1,joint4,joint5,joint6,-0.6574654972683308,1.6200146063748144,0.0012217304815975172,0.00017453292129831807,-0.003316125537177334,-3.12413936106985,0.0,0.02617205438671064,0.0,0.0,0.0,0.0,nan,nan,nan,nan,nan,nan
1738061233,541581784,,joint2,joint3,joint1,joint4,joint5,joint6,-0.6574654972683308,1.6203636136356692,0.0012217304815975172,0.00017453292129831807,-0.003316125537177334,-3.12413936106985,0.0,0.017450928452818818,0.0,0.0,0.0,0.0,nan,nan,nan,nan,nan,nan
1738061233,561578425,,joint2,joint3,joint1,joint4,joint5,joint6,-0.6574654972683308,1.6203636136356692,0.0012217304815975172,0.00017453292129831807,-0.003316125537177334,-3.12413936106985,0.0,0.0,0.0,0.0,0.0,0.0,nan,nan,nan,nan,nan,nan
1738061233,581577957,,joint2,joint3,joint1,joint4,joint5,joint6,-0.6574654972683308,1.6212363315248883,0.0012217304815975172,0.00017453292129831807,-0.003316125537177334,-3.12413936106985,0.0,0.04363473377703981,0.0,0.0,0.0,0.0,nan,nan,nan,nan,nan,nan
1738061233,601586858,,joint2,joint3,joint1,joint4,joint5,joint6,-0.6574654972683308,1.6222834864655076,0.0012217304815975172,0.00017453292129831807,-0.003316125537177334,-3.12413936106985,0.0,0.05234026276618515,0.0,0.0,0.0,0.0,nan,nan,nan,nan,nan,nan
1738061233,621583439,,joint2,joint3,joint1,joint4,joint5,joint6,-0.6574654972683308,1.6238543520344908,0.0012217304815975172,0.00017453292129831807,-0.003316125537177334,-3.12413936106985,0.0,0.0785515224314405,0.0,0.0,0.0,0.0,nan,nan,nan,nan,nan,nan
1738061233,641581070,,joint2,joint3,joint1,joint4,joint5,joint6,-0.6574654972683308,1.6238543520344908,0.0012217304815975172,0.00017453292129831807,-0.003316125537177334,-3.12413936106985,0.0,0.0,0.0,0.0,0.0,0.0,nan,nan,nan,nan,nan,nan
1738061233,661584642,,joint2,joint3,joint1,joint4,joint5,joint6,-0.6574654972683308,1.6242033592953458,0.0012217304815975172,0.00017453292129831807,-0.003316125537177334,-3.12413936106985,0.0,0.017447194632202845,0.0,0.0,0.0,0.0,nan,nan,nan,nan,nan,nan
1738061233,681580513,,joint2,joint3,joint1,joint4,joint5,joint6,-0.6574654972683308,1.6254250844454194,0.0012217304815975172,0.00017453292129831807,-0.003316125537177334,-3.12413936106985,0.0,0.06109630479100701,0.0,0.0,0.0,0.0,nan,nan,nan,nan,nan,nan
1738061233,701580105,,joint2,joint3,joint1,joint4,joint5,joint6,-0.6574654972683308,1.6254250844454194,0.0012217304815975172,0.00017453292129831807,-0.003316125537177334,-3.12413936106985,0.0,0.0,0.0,0.0,0.0,0.0,nan,nan,nan,nan,nan,nan
1738061233,721577586,,joint2,joint3,joint1,joint4,joint5,joint6,-0.6574654972683308,1.6269959500144027,0.0012217304815975172,0.00017453292129831807,-0.003316125537177334,-3.12413936106985,0.0,0.07855073684162442,0.0,0.0,0.0,0.0,nan,nan,nan,nan,nan,nan
1738061233,741582108,,joint2,joint3,joint1,joint4,joint5,joint6,-0.6574654972683308,1.628043104955022,0.0012217304815975172,0.00017453292129831807,-0.003316125537177334,-3.12413936106985,0.0,0.052350936174165925,0.0,0.0,0.0,0.0,nan,nan,nan,nan,nan,nan
1738061233,761583239,,joint2,joint3,joint1,joint4,joint5,joint6,-0.6574654972683308,1.628392245373931,0.0012217304815975172,0.00017453292129831807,-0.003316125537177334,-3.12413936106985,0.0,0.017456330547581826,0.0,0.0,0.0,0.0,nan,nan,nan,nan,nan,nan
1738061233,781582911,,joint2,joint3,joint1,joint4,joint5,joint6,-0.6574654972683308,1.628392245373931,0.0012217304815975172,0.00017453292129831807,-0.003316125537177334,-3.12413936106985,0.0,0.0,0.0,0.0,0.0,0.0,nan,nan,nan,nan,nan,nan
1738061233,801577042,,joint2,joint3,joint1,joint4,joint5,joint6,-0.6574654972683308,1.6292648301050958,0.0012217304815975172,0.00017453292129831807,-0.003316125537177334,-3.12413936106985,0.0,0.043640930145472726,0.0,0.0,0.0,0.0,nan,nan,nan,nan,nan,nan
1738061233,821578084,,joint2,joint3,joint1,joint4,joint5,joint6,-0.6574654972683308,1.6308356956740788,0.0012217304815975172,0.00017453292129831807,-0.003316125537177334,-3.12413936106985,0.0,0.07853824414770035,0.0,0.0,0.0,0.0,nan,nan,nan,nan,nan,nan
1738061233,841582215,,joint2,joint3,joint1,joint4,joint5,joint6,-0.6574654972683308,1.6317082804052432,0.0012217304815975172,0.00017453292129831807,-0.003316125537177334,-3.12413936106985,0.0,0.04362386864118175,0.0,0.0,0.0,0.0,nan,nan,nan,nan,nan,nan
1738061233,861592466,,joint2,joint3,joint1,joint4,joint5,joint6,-0.6574654972683308,1.6317082804052432,0.0012217304815975172,0.00017453292129831807,-0.003316125537177334,-3.12413936106985,0.0,0.0,0.0,0.0,0.0,0.0,nan,nan,nan,nan,nan,nan
1738061233,881582017,,joint2,joint3,joint1,joint4,joint5,joint6,-0.6574654972683308,1.632755568503917,0.0012217304815975172,0.00017453292129831807,-0.003316125537177334,-3.12413936106985,0.0,0.05239353311842851,0.0,0.0,0.0,0.0,nan,nan,nan,nan,nan,nan
1738061233,901576999,,joint2,joint3,joint1,joint4,joint5,joint6,-0.6574654972683308,1.6357225962743744,0.0012217304815975172,0.00017453292129831807,-0.003316125537177334,-3.12413936106985,0.0,0.14837081026193483,0.0,0.0,0.0,0.0,nan,nan,nan,nan,nan,nan
1738061233,921574790,,joint2,joint3,joint1,joint4,joint5,joint6,-0.6574654972683308,1.6357225962743744,0.0012217304815975172,0.00017453292129831807,-0.003316125537177334,-3.12413936106985,0.0,0.0,0.0,0.0,0.0,0.0,nan,nan,nan,nan,nan,nan
1738061233,941587622,,joint2,joint3,joint1,joint4,joint5,joint6,-0.6574654972683308,1.637467898894758,0.0012217304815975172,0.00017453292129831807,-0.003316125537177334,-3.12413936106985,0.0,0.0872307097810967,0.0,0.0,0.0,0.0,nan,nan,nan,nan,nan,nan
1738061233,961579213,,joint2,joint3,joint1,joint4,joint5,joint6,-0.6574654972683308,1.6392132015151413,0.0012217304815975172,0.00017453292129831807,-0.003316125537177334,-3.12413936106985,0.0,0.0872897423620242,0.0,0.0,0.0,0.0,nan,nan,nan,nan,nan,nan
1738061233,981581665,,joint2,joint3,joint1,joint4,joint5,joint6,-0.6574654972683308,1.6423547994950531,0.0012217304815975172,0.00017453292129831807,-0.003316125537177334,-3.12413936106985,0.0,0.1570672393760998,0.0,0.0,0.0,0.0,nan,nan,nan,nan,nan,nan
1738061234,1576856,,joint2,joint3,joint1,joint4,joint5,joint6,-0.6574654972683308,1.6423547994950531,0.0012217304815975172,0.00017453292129831807,-0.003316125537177334,-3.12413936106985,0.0,0.0,0.0,0.0,0.0,0.0,nan,nan,nan,nan,nan,nan
1738061234,21576009,,joint2,joint3,joint1,joint4,joint5,joint6,-0.6574654972683308,1.645496397474965,0.0012217304815975172,0.00017453292129831807,-0.003316125537177334,-3.12413936106985,0.0,0.15707736219619403,0.0,0.0,0.0,0.0,nan,nan,nan,nan,nan,nan
1738061234,41586110,,joint2,joint3,joint1,joint4,joint5,joint6,-0.6574654972683308,1.6484634252454222,0.0012217304815975172,0.00017453292129831807,-0.003316125537177334,-3.12413936106985,0.0,0.14829857939873656,0.0,0.0,0.0,0.0,nan,nan,nan,nan,nan,nan
1738061234,61580222,,joint2,joint3,joint1,joint4,joint5,joint6,-0.6574654972683308,1.6505578682847153,0.0012217304815975172,0.00017453292129831807,-0.003316125537177334,-3.12413936106985,0.0,0.10474136676838718,0.0,0.0,0.0,0.0,nan,nan,nan,nan,nan,nan
1738061234,81575794,,joint2,joint3,joint1,joint4,joint5,joint6,-0.6574654972683308,1.6505578682847153,0.0012217304815975172,0.00017453292129831807,-0.003316125537177334,-3.12413936106985,0.0,0.0,0.0,0.0,0.0,0.0,nan,nan,nan,nan,nan,nan
1738061234,101589936,,joint2,joint3,joint1,joint4,joint5,joint6,-0.6574654972683308,1.6545721841538463,0.0012217304815975172,0.00017453292129831807,-0.003316125537177334,-3.12413936106985,0.0,0.20059892452312458,0.0,0.0,0.0,0.0,nan,nan,nan,nan,nan,nan
1738061234,121584118,,joint2,joint3,joint1,joint4,joint5,joint6,-0.6574654972683308,1.656492056983684,0.0012217304815975172,0.00017453292129831807,-0.003316125537177334,-3.12413936106985,0.0,0.09600947345405973,0.0,0.0,0.0,0.0,nan,nan,nan,nan,nan,nan
1738061234,141578269,,joint2,joint3,joint1,joint4,joint5,joint6,-0.6574654972683308,1.6596335218055418,0.0012217304815975172,0.00017453292129831807,-0.003316125537177334,-3.12413936106985,0.0,0.15712209820932477,0.0,0.0,0.0,0.0,nan,nan,nan,nan,nan,nan
1738061234,161581401,,joint2,joint3,joint1,joint4,joint5,joint6,-0.6574654972683308,1.6596335218055418,0.0012217304815975172,0.00017453292129831807,-0.003316125537177334,-3.12413936106985,0.0,0.0,0.0,0.0,0.0,0.0,nan,nan,nan,nan,nan,nan
1738061234,181578242,,joint2,joint3,joint1,joint4,joint5,joint6,-0.6574654972683308,1.6617279648448346,0.0012217304815975172,0.00017453292129831807,-0.003316125537177334,-3.12413936106985,0.0,0.10473534338114125,0.0,0.0,0.0,0.0,nan,nan,nan,nan,nan,nan
1738061234,201578925,,joint2,joint3,joint1,joint4,joint5,joint6,-0.6574654972683308,1.6646949926152919,0.0012217304815975172,0.00017453292129831807,-0.003316125537177334,-3.12413936106985,0.0,0.14834513577538752,0.0,0.0,0.0,0.0,nan,nan,nan,nan,nan,nan
1738061234,221595966,,joint2,joint3,joint1,joint4,joint5,joint6,-0.6574654972683308,1.6646949926152919,0.0012217304815975172,0.00017453292129831807,-0.003316125537177334,-3.12413936106985,0.0,0.0,0.0,0.0,0.0,0.0,nan,nan,nan,nan,nan,nan
1738061234,241578518,,joint2,joint3,joint1,joint4,joint5,joint6,-0.6574654972683308,1.6680111608046584,0.0012217304815975172,0.00017453292129831807,-0.003316125537177334,-3.12413936106985,0.0,0.16596232292660867,0.0,0.0,0.0,0.0,nan,nan,nan,nan,nan,nan
1738061234,261573010,,joint2,joint3,joint1,joint4,joint5,joint6,-0.6574654972683308,1.6713273289940254,0.0012217304815975172,0.00017453292129831807,-0.003316125537177334,-3.12413936106985,0.0,0.16583301908838144,0.0,0.0,0.0,0.0,nan,nan,nan,nan,nan,nan
1738061234,281571191,,joint2,joint3,joint1,joint4,joint5,joint6,-0.6574654972683308,1.6737707792941727,0.0012217304815975172,0.00017453292129831807,-0.003316125537177334,-3.12413936106985,0.0,0.12217470804337764,0.0,0.0,0.0,0.0,nan,nan,nan,nan,nan,nan
1738061234,301574553,,joint2,joint3,joint1,joint4,joint5,joint6,-0.6574654972683308,1.6737707792941727,0.0012217304815975172,0.00017453292129831807,-0.003316125537177334,-3.12413936106985,0.0,0.0,0.0,0.0,0.0,0.0,nan,nan,nan,nan,nan,nan
1738061234,321590665,,joint2,joint3,joint1,joint4,joint5,joint6,-0.6574654972683308,1.67726138453494,0.0012217304815975172,0.00017453292129831807,-0.003316125537177334,-3.12413936106985,0.0,0.17438715993492115,0.0,0.0,0.0,0.0,nan,nan,nan,nan,nan,nan
1738061234,341572407,,joint2,joint3,joint1,joint4,joint5,joint6,-0.6574654972683308,1.6805775527243065,0.0012217304815975172,0.00017453292129831807,-0.003316125537177334,-3.12413936106985,0.0,0.16596315351266172,0.0,0.0,0.0,0.0,nan,nan,nan,nan,nan,nan
1738061234,361572578,,joint2,joint3,joint1,joint4,joint5,joint6,-0.6574654972683308,1.683370010285309,0.0012217304815975172,0.00017453292129831807,-0.003316125537177334,-3.12413936106985,0.0,0.13962063713890133,0.0,0.0,0.0,0.0,nan,nan,nan,nan,nan,nan
1738061234,381571390,,joint2,joint3,joint1,joint4,joint5,joint6,-0.6574654972683308,1.683370010285309,0.0012217304815975172,0.00017453292129831807,-0.003316125537177334,-3.12413936106985,0.0,0.0,0.0,0.0,0.0,0.0,nan,nan,nan,nan,nan,nan
1738061234,401571271,,joint2,joint3,joint1,joint4,joint5,joint6,-0.6574654972683308,1.685289883115147,0.0012217304815975172,0.00017453292129831807,-0.003316125537177334,-3.12413936106985,0.0,0.09599464463593471,0.0,0.0,0.0,0.0,nan,nan,nan,nan,nan,nan
1738061234,421570663,,joint2,joint3,joint1,joint4,joint5,joint6,-0.6574654972683308,1.6879079036247495,0.0012217304815975172,0.00017453292129831807,-0.003316125537177334,-3.12413936106985,0.0,0.13090101239002228,0.0,0.0,0.0,0.0,nan,nan,nan,nan,nan,nan
1738061234,441569725,,joint2,joint3,joint1,joint4,joint5,joint6,-0.6574654972683308,1.690351353924897,0.0012217304815975172,0.00017453292129831807,-0.003316125537177334,-3.12413936106985,0.0,0.12218123874782595,0.0,0.0,0.0,0.0,nan,nan,nan,nan,nan,nan
1738061234,461572487,,joint2,joint3,joint1,joint4,joint5,joint6,-0.6574654972683308,1.690351353924897,0.0012217304815975172,0.00017453292129831807,-0.003316125537177334,-3.12413936106985,0.0,0.0,0.0,0.0,0.0,0.0,nan,nan,nan,nan,nan,nan
1738061234,481572208,,joint2,joint3,joint1,joint4,joint5,joint6,-0.6574654972683308,1.691747649284426,0.0012217304815975172,0.00017453292129831807,-0.003316125537177334,-3.12413936106985,0.0,0.06981532300825728,0.0,0.0,0.0,0.0,nan,nan,nan,nan,nan,nan
1738061234,501557250,,joint2,joint3,joint1,joint4,joint5,joint6,-0.6574654972683308,1.6934929519048092,0.0012217304815975172,0.00017453292129831807,-0.003316125537177334,-3.12413936106985,0.0,0.08732847909790284,0.0,0.0,0.0,0.0,nan,nan,nan,nan,nan,nan
1738061234,521574211,,joint2,joint3,joint1,joint4,joint5,joint6,-0.6574654972683308,1.6934929519048092,0.0012217304815975172,0.00017453292129831807,-0.003316125537177334,-3.12413936106985,0.0,0.0,0.0,0.0,0.0,0.0,nan,nan,nan,nan,nan,nan
1738061234,541574433,,joint2,joint3,joint1,joint4,joint5,joint6,-0.6574654972683308,1.694714677054883,0.0012217304815975172,0.00017453292129831807,-0.003316125537177334,-3.12413936106985,0.0,0.06109547681114603,0.0,0.0,0.0,0.0,nan,nan,nan,nan,nan,nan
1738061234,561580266,,joint2,joint3,joint1,joint4,joint5,joint6,-0.6574654972683308,1.695587394944102,0.0012217304815975172,0.00017453292129831807,-0.003316125537177334,-3.12413936106985,0.0,0.04361933438064956,0.0,0.0,0.0,0.0,nan,nan,nan,nan,nan,nan
1738061234,581577947,,joint2,joint3,joint1,joint4,joint5,joint6,-0.6574654972683308,1.6957619651535567,0.0012217304815975172,0.00017453292129831807,-0.003316125537177334,-3.12413936106985,0.0,0.008729011954469826,0.0,0.0,0.0,0.0,nan,nan,nan,nan,nan,nan
1738061234,601571789,,joint2,joint3,joint1,joint4,joint5,joint6,-0.6574654972683308,1.6957619651535567,0.0012217304815975172,0.00017453292129831807,-0.003316125537177334,-3.12413936106985,0.0,0.0,0.0,0.0,0.0,0.0,nan,nan,nan,nan,nan,nan
1738061234,621571480,,joint2,joint3,joint1,joint4,joint5,joint6,-0.6574654972683308,1.6959364022049568,0.0012217304815975172,0.00017453292129831807,-0.003316125537177334,-3.12413936106985,0.0,0.008721926270280891,0.0,0.0,0.0,0.0,nan,nan,nan,nan,nan,nan
1738061234,641583062,,joint2,joint3,joint1,joint4,joint5,joint6,-0.6574654972683308,1.6954128247346474,0.0012217304815975172,0.00017453292129831807,-0.003316125537177334,-3.12413936106985,0.0,-0.02617060098849753,0.0,0.0,0.0,0.0,nan,nan,nan,nan,nan,nan
1738061234,661580134,,joint2,joint3,joint1,joint4,joint5,joint6,-0.6574654972683308,1.6945401068454284,0.0012217304815975172,0.00017453292129831807,-0.003316125537177334,-3.12413936106985,0.0,-0.043638268382747196,0.0,0.0,0.0,0.0,nan,nan,nan,nan,nan,nan
1738061234,681572756,,joint2,joint3,joint1,joint4,joint5,joint6,-0.6574654972683308,1.6945401068454284,0.0012217304815975172,0.00017453292129831807,-0.003316125537177334,-3.12413936106985,0.0,0.0,0.0,0.0,0.0,0.0,nan,nan,nan,nan,nan,nan
1738061234,701577267,,joint2,joint3,joint1,joint4,joint5,joint6,-0.6574654972683308,1.6936675221142639,0.0012217304815975172,0.00017453292129831807,-0.003316125537177334,-3.12413936106985,0.0,-0.04362011777260878,0.0,0.0,0.0,0.0,nan,nan,nan,nan,nan,nan
1738061234,721585589,,joint2,joint3,joint1,joint4,joint5,joint6,-0.6574654972683308,1.6919222194938806,0.0012217304815975172,0.00017453292129831807,-0.003316125537177334,-3.12413936106985,0.0,-0.0872279195886687,0.0,0.0,0.0,0.0,nan,nan,nan,nan,nan,nan
1738061234,741579460,,joint2,joint3,joint1,joint4,joint5,joint6,-0.6574654972683308,1.6919222194938806,0.0012217304815975172,0.00017453292129831807,-0.003316125537177334,-3.12413936106985,0.0,0.0,0.0,0.0,0.0,0.0,nan,nan,nan,nan,nan,nan
1738061234,761580592,,joint2,joint3,joint1,joint4,joint5,joint6,-0.6574654972683308,1.689653206245133,0.0012217304815975172,0.00017453292129831807,-0.003316125537177334,-3.12413936106985,0.0,-0.11343408971686782,0.0,0.0,0.0,0.0,nan,nan,nan,nan,nan,nan
1738061234,781577964,,joint2,joint3,joint1,joint4,joint5,joint6,-0.6574654972683308,1.6868607486841303,0.0012217304815975172,0.00017453292129831807,-0.003316125537177334,-3.12413936106985,0.0,-0.1396287983111869,0.0,0.0,0.0,0.0,nan,nan,nan,nan,nan,nan
1738061234,801590906,,joint2,joint3,joint1,joint4,joint5,joint6,-0.6574654972683308,1.6868607486841303,0.0012217304815975172,0.00017453292129831807,-0.003316125537177334,-3.12413936106985,0.0,0.0,0.0,0.0,0.0,0.0,nan,nan,nan,nan,nan,nan
1738061234,821591847,,joint2,joint3,joint1,joint4,joint5,joint6,-0.6574654972683308,1.6847663056448374,0.0012217304815975172,0.00017453292129831807,-0.003316125537177334,-3.12413936106985,0.0,-0.10471717266308228,0.0,0.0,0.0,0.0,nan,nan,nan,nan,nan,nan
1738061234,841592719,,joint2,joint3,joint1,joint4,joint5,joint6,-0.6574654972683308,1.681450137455471,0.0012217304815975172,0.00017453292129831807,-0.003316125537177334,-3.12413936106985,0.0,-0.16585516403906914,0.0,0.0,0.0,0.0,nan,nan,nan,nan,nan,nan
1738061234,861580430,,joint2,joint3,joint1,joint4,joint5,joint6,-0.6574654972683308,1.6774359547443944,0.0012217304815975172,0.00017453292129831807,-0.003316125537177334,-3.12413936106985,0.0,-0.20079133952822548,0.0,0.0,0.0,0.0,nan,nan,nan,nan,nan,nan
1738061234,881575522,,joint2,joint3,joint1,joint4,joint5,joint6,-0.6574654972683308,1.6744689269739372,0.0012217304815975172,0.00017453292129831807,-0.003316125537177334,-3.12413936106985,0.0,-0.14838409979766085,0.0,0.0,0.0,0.0,nan,nan,nan,nan,nan,nan
1738061234,901574055,,joint2,joint3,joint1,joint4,joint5,joint6,-0.6574654972683308,1.6744689269739372,0.0012217304815975172,0.00017453292129831807,-0.003316125537177334,-3.12413936106985,0.0,0.0,0.0,0.0,0.0,0.0,nan,nan,nan,nan,nan,nan
1738061234,921591156,,joint2,joint3,joint1,joint4,joint5,joint6,-0.6574654972683308,1.6699310336344966,0.0012217304815975172,0.00017453292129831807,-0.003316125537177334,-3.12413936106985,0.0,-0.22668791625800977,0.0,0.0,0.0,0.0,nan,nan,nan,nan,nan,nan
1738061234,941581138,,joint2,joint3,joint1,joint4,joint5,joint6,-0.6574654972683308,1.6646949926152919,0.0012217304815975172,0.00017453292129831807,-0.003316125537177334,-3.12413936106985,0.0,-0.26198279288905,0.0,0.0,0.0,0.0,nan,nan,nan,nan,nan,nan
1738061234,961583759,,joint2,joint3,joint1,joint4,joint5,joint6,-0.6574654972683308,1.6589355072838319,0.0012217304815975172,0.00017453292129831807,-0.003316125537177334,-3.12413936106985,0.0,-0.2879106239295793,0.0,0.0,0.0,0.0,nan,nan,nan,nan,nan,nan
1738061234,981593701,,joint2,joint3,joint1,joint4,joint5,joint6,-0.6574654972683308,1.6589355072838319,0.0012217304815975172,0.00017453292129831807,-0.003316125537177334,-3.12413936106985,0.0,0.0,0.0,0.0,0.0,0.0,nan,nan,nan,nan,nan,nan
1738061235,1576803,,joint2,joint3,joint1,joint4,joint5,joint6,-0.6574654972683308,1.654921191414701,0.0012217304815975172,0.00017453292129831807,-0.003316125537177334,-3.12413936106985,0.0,-0.2008784849414948,0.0,0.0,0.0,0.0,nan,nan,nan,nan,nan,nan
1738061235,21570145,,joint2,joint3,joint1,joint4,joint5,joint6,-0.6574654972683308,1.6484634252454222,0.0012217304815975172,0.00017453292129831807,-0.003316125537177334,-3.12413936106985,0.0,-0.322981294778709,0.0,0.0,0.0,0.0,nan,nan,nan,nan,nan,nan
1738061235,41575216,,joint2,joint3,joint1,joint4,joint5,joint6,-0.6574654972683308,1.6484634252454222,0.0012217304815975172,0.00017453292129831807,-0.003316125537177334,-3.12413936106985,0.0,0.0,0.0,0.0,0.0,0.0,nan,nan,nan,nan,nan,nan
1738061235,61571889,,joint2,joint3,joint1,joint4,joint5,joint6,-0.6574654972683308,1.6414822147638888,0.0012217304815975172,0.00017453292129831807,-0.003316125537177334,-3.12413936106985,0.0,-0.34909730147738266,0.0,0.0,0.0,0.0,nan,nan,nan,nan,nan,nan
1738061235,81576421,,joint2,joint3,joint1,joint4,joint5,joint6,-0.6574654972683308,1.634151730705391,0.0012217304815975172,0.00017453292129831807,-0.003316125537177334,-3.12413936106985,0.0,-0.36648348660952706,0.0,0.0,0.0,0.0,nan,nan,nan,nan,nan,nan
1738061235,101575473,,joint2,joint3,joint1,joint4,joint5,joint6,-0.6574654972683308,1.6289158228442409,0.0012217304815975172,0.00017453292129831807,-0.003316125537177334,-3.12413936106985,0.0,-0.261798377559011,0.0,0.0,0.0,0.0,nan,nan,nan,nan,nan,nan
1738061235,121575685,,joint2,joint3,joint1,joint4,joint5,joint6,-0.6574654972683308,1.6289158228442409,0.0012217304815975172,0.00017453292129831807,-0.003316125537177334,-3.12413936106985,0.0,0.0,0.0,0.0,0.0,0.0,nan,nan,nan,nan,nan,nan
1738061235,141581207,,joint2,joint3,joint1,joint4,joint5,joint6,-0.6574654972683308,1.6179201633355216,0.0012217304815975172,0.00017453292129831807,-0.003316125537177334,-3.12413936106985,0.0,-0.5497010150146253,0.0,0.0,0.0,0.0,nan,nan,nan,nan,nan,nan
1738061235,161571809,,joint2,joint3,joint1,joint4,joint5,joint6,-0.6574654972683308,1.6121606780040618,0.0012217304815975172,0.00017453292129831807,-0.003316125537177334,-3.12413936106985,0.0,-0.2880520118109756,0.0,0.0,0.0,0.0,nan,nan,nan,nan,nan,nan
1738061235,181572170,,joint2,joint3,joint1,joint4,joint5,joint6,-0.6574654972683308,1.602910321115726,0.0012217304815975172,0.00017453292129831807,-0.003316125537177334,-3.12413936106985,0.0,-0.4625164337416648,0.0,0.0,0.0,0.0,nan,nan,nan,nan,nan,nan
1738061235,201570423,,joint2,joint3,joint1,joint4,joint5,joint6,-0.6574654972683308,1.602910321115726,0.0012217304815975172,0.00017453292129831807,-0.003316125537177334,-3.12413936106985,0.0,0.0,0.0,0.0,0.0,0.0,nan,nan,nan,nan,nan,nan
1738061235,221571245,,joint2,joint3,joint1,joint4,joint5,joint6,-0.6574654972683308,1.5966272583139565,0.0012217304815975172,0.00017453292129831807,-0.003316125537177334,-3.12413936106985,0.0,-0.31414352729654477,0.0,0.0,0.0,0.0,nan,nan,nan,nan,nan,nan
1738061235,241584567,,joint2,joint3,joint1,joint4,joint5,joint6,-0.6574654972683308,1.5866788869039112,0.0012217304815975172,0.00017453292129831807,-0.003316125537177334,-3.12413936106985,0.0,-0.49725218991951453,0.0,0.0,0.0,0.0,nan,nan,nan,nan,nan,nan
1738061235,261577759,,joint2,joint3,joint1,joint4,joint5,joint6,-0.6574654972683308,1.5866788869039112,0.0012217304815975172,0.00017453292129831807,-0.003316125537177334,-3.12413936106985,0.0,0.0,0.0,0.0,0.0,0.0,nan,nan,nan,nan,nan,nan
1738061235,281579071,,joint2,joint3,joint1,joint4,joint5,joint6,-0.6574654972683308,1.5763813750749562,0.0012217304815975172,0.00017453292129831807,-0.003316125537177334,-3.12413936106985,0.0,-0.5148626683947731,0.0,0.0,0.0,0.0,nan,nan,nan,nan,nan,nan
1738061235,301571903,,joint2,joint3,joint1,joint4,joint5,joint6,-0.6574654972683308,1.5655602857756918,0.0012217304815975172,0.00017453292129831807,-0.003316125537177334,-3.12413936106985,0.0,-0.5412205655547886,0.0,0.0,0.0,0.0,nan,nan,nan,nan,nan,nan
1738061235,321572125,,joint2,joint3,joint1,joint4,joint5,joint6,-0.6574654972683308,1.558055364665794,0.0012217304815975172,0.00017453292129831807,-0.003316125537177334,-3.12413936106985,0.0,-0.3752405769824694,0.0,0.0,0.0,0.0,nan,nan,nan,nan,nan,nan
1738061235,341589747,,joint2,joint3,joint1,joint4,joint5,joint6,-0.6574654972683308,1.558055364665794,0.0012217304815975172,0.00017453292129831807,-0.003316125537177334,-3.12413936106985,0.0,0.0,0.0,0.0,0.0,0.0,nan,nan,nan,nan,nan,nan
1738061235,361578578,,joint2,joint3,joint1,joint4,joint5,joint6,-0.6574654972683308,1.546361690635365,0.0012217304815975172,0.00017453292129831807,-0.003316125537177334,-3.12413936106985,0.0,-0.5849387055501336,0.0,0.0,0.0,0.0,nan,nan,nan,nan,nan,nan
1738061235,381571791,,joint2,joint3,joint1,joint4,joint5,joint6,-0.6574654972683308,1.5343190093440813,0.0012217304815975172,0.00017453292129831807,-0.003316125537177334,-3.12413936106985,0.0,-0.6022146709978989,0.0,0.0,0.0,0.0,nan,nan,nan,nan,nan,nan
1738061235,401574903,,joint2,joint3,joint1,joint4,joint5,joint6,-0.6574654972683308,1.5259413703449645,0.0012217304815975172,0.00017453292129831807,-0.003316125537177334,-3.12413936106985,0.0,-0.41882494788043395,0.0,0.0,0.0,0.0,nan,nan,nan,nan,nan,nan
1738061235,421576355,,joint2,joint3,joint1,joint4,joint5,joint6,-0.6574654972683308,1.5259413703449645,0.0012217304815975172,0.00017453292129831807,-0.003316125537177334,-3.12413936106985,0.0,0.0,0.0,0.0,0.0,0.0,nan,nan,nan,nan,nan,nan
1738061235,441576877,,joint2,joint3,joint1,joint4,joint5,joint6,-0.6574654972683308,1.5130259711644616,0.0012217304815975172,0.00017453292129831807,-0.003316125537177334,-3.12413936106985,0.0,-0.6457602080460026,0.0,0.0,0.0,0.0,nan,nan,nan,nan,nan,nan
1738061235,461576359,,joint2,joint3,joint1,joint4,joint5,joint6,-0.6574654972683308,1.499586861355595,0.0012217304815975172,0.00017453292129831807,-0.003316125537177334,-3.12413936106985,0.0,-0.6719782705067024,0.0,0.0,0.0,0.0,nan,nan,nan,nan,nan,nan
1738061235,481572891,,joint2,joint3,joint1,joint4,joint5,joint6,-0.6574654972683308,1.485798744285873,0.0012217304815975172,0.00017453292129831807,-0.003316125537177334,-3.12413936106985,0.0,-0.6895150726736029,0.0,0.0,0.0,0.0,nan,nan,nan,nan,nan,nan
1738061235,501581183,,joint2,joint3,joint1,joint4,joint5,joint6,-0.6574654972683308,1.485798744285873,0.0012217304815975172,0.00017453292129831807,-0.003316125537177334,-3.12413936106985,0.0,0.0,0.0,0.0,0.0,0.0,nan,nan,nan,nan,nan,nan
1738061235,521571875,,joint2,joint3,joint1,joint4,joint5,joint6,-0.6574654972683308,1.476373950346137,0.0012217304815975172,0.00017453292129831807,-0.003316125537177334,-3.12413936106985,0.0,-0.47144661490608497,0.0,0.0,0.0,0.0,nan,nan,nan,nan,nan,nan
1738061235,541571907,,joint2,joint3,joint1,joint4,joint5,joint6,-0.6574654972683308,1.4617132485452509,0.0012217304815975172,0.00017453292129831807,-0.003316125537177334,-3.12413936106985,0.0,-0.7330408810672698,0.0,0.0,0.0,0.0,nan,nan,nan,nan,nan,nan
1738061235,561575729,,joint2,joint3,joint1,joint4,joint5,joint6,-0.6574654972683308,1.4617132485452509,0.0012217304815975172,0.00017453292129831807,-0.003316125537177334,-3.12413936106985,0.0,0.0,0.0,0.0,0.0,0.0,nan,nan,nan,nan,nan,nan
1738061235,581575191,,joint2,joint3,joint1,joint4,joint5,joint6,-0.6574654972683308,1.4465288361160007,0.0012217304815975172,0.00017453292129831807,-0.003316125537177334,-3.12413936106985,0.0,-0.7592342117548989,0.0,0.0,0.0,0.0,nan,nan,nan,nan,nan,nan
1738061235,601575413,,joint2,joint3,joint1,joint4,joint5,joint6,-0.6574654972683308,1.4309954164258953,0.0012217304815975172,0.00017453292129831807,-0.003316125537177334,-3.12413936106985,0.0,-0.7766561503727956,0.0,0.0,0.0,0.0,nan,nan,nan,nan,nan,nan
1738061235,621574875,,joint2,joint3,joint1,joint4,joint5,joint6,-0.6574654972683308,1.4205234675455405,0.0012217304815975172,0.00017453292129831807,-0.003316125537177334,-3.12413936106985,0.0,-0.5236136236787143,0.0,0.0,0.0,0.0,nan,nan,nan,nan,nan,nan
1738061235,641571578,,joint2,joint3,joint1,joint4,joint5,joint6,-0.6574654972683308,1.4205234675455405,0.0012217304815975172,0.00017453292129831807,-0.003316125537177334,-3.12413936106985,0.0,0.0,0.0,0.0,0.0,0.0,nan,nan,nan,nan,nan,nan
1738061235,661572129,,joint2,joint3,joint1,joint4,joint5,joint6,-0.6574654972683308,1.4046410405945804,0.0012217304815975172,0.00017453292129831807,-0.003316125537177334,-3.12413936106985,0.0,-0.7940911323804176,0.0,0.0,0.0,0.0,nan,nan,nan,nan,nan,nan
1738061235,681573251,,joint2,joint3,joint1,joint4,joint5,joint6,-0.6574654972683308,1.38945662816533,0.0012217304815975172,0.00017453292129831807,-0.003316125537177334,-3.12413936106985,0.0,-0.7591841047070832,0.0,0.0,0.0,0.0,nan,nan,nan,nan,nan,nan
1738061235,701573303,,joint2,joint3,joint1,joint4,joint5,joint6,-0.6574654972683308,1.3744467859455345,0.0012217304815975172,0.00017453292129831807,-0.003316125537177334,-3.12413936106985,0.0,-0.7505126750370715,0.0,0.0,0.0,0.0,nan,nan,nan,nan,nan,nan
1738061235,721556955,,joint2,joint3,joint1,joint4,joint5,joint6,-0.6574654972683308,1.3744467859455345,0.0012217304815975172,0.00017453292129831807,-0.003316125537177334,-3.12413936106985,0.0,0.0,0.0,0.0,0.0,0.0,nan,nan,nan,nan,nan,nan
1738061235,741575337,,joint2,joint3,joint1,joint4,joint5,joint6,-0.6574654972683308,1.364847421796344,0.0012217304815975172,0.00017453292129831807,-0.003316125537177334,-3.12413936106985,0.0,-0.47952699467172716,0.0,0.0,0.0,0.0,nan,nan,nan,nan,nan,nan
1738061235,761573249,,joint2,joint3,joint1,joint4,joint5,joint6,-0.6574654972683308,1.3507102974657672,0.0012217304815975172,0.00017453292129831807,-0.003316125537177334,-3.12413936106985,0.0,-0.7069363831146847,0.0,0.0,0.0,0.0,nan,nan,nan,nan,nan,nan
1738061235,781572662,,joint2,joint3,joint1,joint4,joint5,joint6,-0.6574654972683308,1.3507102974657672,0.0012217304815975172,0.00017453292129831807,-0.003316125537177334,-3.12413936106985,0.0,0.0,0.0,0.0,0.0,0.0,nan,nan,nan,nan,nan,nan
1738061235,801590663,,joint2,joint3,joint1,joint4,joint5,joint6,-0.6574654972683308,1.3370967506055003,0.0012217304815975172,0.00017453292129831807,-0.003316125537177334,-3.12413936106985,0.0,-0.6800553983487874,0.0,0.0,0.0,0.0,nan,nan,nan,nan,nan,nan
1738061235,821585315,,joint2,joint3,joint1,joint4,joint5,joint6,-0.6574654972683308,1.3281955341360738,0.0012217304815975172,0.00017453292129831807,-0.003316125537177334,-3.12413936106985,0.0,-0.44517717052483824,0.0,0.0,0.0,0.0,nan,nan,nan,nan,nan,nan
1738061235,841574357,,joint2,joint3,joint1,joint4,joint5,joint6,-0.6574654972683308,1.3154547051650258,0.0012217304815975172,0.00017453292129831807,-0.003316125537177334,-3.12413936106985,0.0,-0.6374053751513428,0.0,0.0,0.0,0.0,nan,nan,nan,nan,nan,nan
1738061235,861573349,,joint2,joint3,joint1,joint4,joint5,joint6,-0.6574654972683308,1.3154547051650258,0.0012217304815975172,0.00017453292129831807,-0.003316125537177334,-3.12413936106985,0.0,0.0,0.0,0.0,0.0,0.0,nan,nan,nan,nan,nan,nan
1738061235,881575901,,joint2,joint3,joint1,joint4,joint5,joint6,-0.6574654972683308,1.302888313245378,0.0012217304815975172,0.00017453292129831807,-0.003316125537177334,-3.12413936106985,0.0,-0.6282315807379348,0.0,0.0,0.0,0.0,nan,nan,nan,nan,nan,nan
1738061235,901591573,,joint2,joint3,joint1,joint4,joint5,joint6,-0.6574654972683308,1.290670928586585,0.0012217304815975172,0.00017453292129831807,-0.003316125537177334,-3.12413936106985,0.0,-0.610398249650218,0.0,0.0,0.0,0.0,nan,nan,nan,nan,nan,nan
1738061235,921590865,,joint2,joint3,joint1,joint4,joint5,joint6,-0.6574654972683308,1.2824679929549774,0.0012217304815975172,0.00017453292129831807,-0.003316125537177334,-3.12413936106985,0.0,-0.41016130129044404,0.0,0.0,0.0,0.0,nan,nan,nan,nan,nan,nan
1738061235,941582457,,joint2,joint3,joint1,joint4,joint5,joint6,-0.6574654972683308,1.2824679929549774,0.0012217304815975172,0.00017453292129831807,-0.003316125537177334,-3.12413936106985,0.0,0.0,0.0,0.0,0.0,0.0,nan,nan,nan,nan,nan,nan
1738061235,961580490,,joint2,joint3,joint1,joint4,joint5,joint6,-0.6574654972683308,1.2697270308258746,0.0012217304815975172,0.00017453292129831807,-0.003316125537177334,-3.12413936106985,0.0,-0.636995458780472,0.0,0.0,0.0,0.0,nan,nan,nan,nan,nan,nan
1738061235,981578211,,joint2,joint3,joint1,joint4,joint5,joint6,-0.6574654972683308,1.256811631645372,0.0012217304815975172,0.00017453292129831807,-0.003316125537177334,-3.12413936106985,0.0,-0.645815133793742,0.0,0.0,0.0,0.0,nan,nan,nan,nan,nan,nan
1738061236,1578124,,joint2,joint3,joint1,joint4,joint5,joint6,-0.6574654972683308,1.243198084785105,0.0012217304815975172,0.00017453292129831807,-0.003316125537177334,-3.12413936106985,0.0,-0.6806755392231683,0.0,0.0,0.0,0.0,nan,nan,nan,nan,nan,nan
1738061236,21576805,,joint2,joint3,joint1,joint4,joint5,joint6,-0.6574654972683308,1.243198084785105,0.0012217304815975172,0.00017453292129831807,-0.003316125537177334,-3.12413936106985,0.0,0.0,0.0,0.0,0.0,0.0,nan,nan,nan,nan,nan,nan
1738061236,41575078,,joint2,joint3,joint1,joint4,joint5,joint6,-0.6574654972683308,1.2341222981062239,0.0012217304815975172,0.00017453292129831807,-0.003316125537177334,-3.12413936106985,0.0,-0.4538693738081257,0.0,0.0,0.0,0.0,nan,nan,nan,nan,nan,nan
1738061236,61572161,,joint2,joint3,joint1,joint4,joint5,joint6,-0.6574654972683308,1.2205087512459567,0.0012217304815975172,0.00017453292129831807,-0.003316125537177334,-3.12413936106985,0.0,-0.6806990232772497,0.0,0.0,0.0,0.0,nan,nan,nan,nan,nan,nan
1738061236,81575432,,joint2,joint3,joint1,joint4,joint5,joint6,-0.6574654972683308,1.2205087512459567,0.0012217304815975172,0.00017453292129831807,-0.003316125537177334,-3.12413936106985,0.0,0.0,0.0,0.0,0.0,0.0,nan,nan,nan,nan,nan,nan
1738061236,101591775,,joint2,joint3,joint1,joint4,joint5,joint6,-0.6574654972683308,1.2068952043856898,0.0012217304815975172,0.00017453292129831807,-0.003316125537177334,-3.12413936106985,0.0,-0.6801263386600818,0.0,0.0,0.0,0.0,nan,nan,nan,nan,nan,nan
1738061236,121575107,,joint2,joint3,joint1,joint4,joint5,joint6,-0.6574654972683308,1.1932816575254226,0.0012217304815975172,0.00017453292129831807,-0.003316125537177334,-3.12413936106985,0.0,-0.6812338429396558,0.0,0.0,0.0,0.0,nan,nan,nan,nan,nan,nan
1738061236,141582119,,joint2,joint3,joint1,joint4,joint5,joint6,-0.6574654972683308,1.1842058708465417,0.0012217304815975172,0.00017453292129831807,-0.003316125537177334,-3.12413936106985,0.0,-0.45372463281140457,0.0,0.0,0.0,0.0,nan,nan,nan,nan,nan,nan
1738061236,161575221,,joint2,joint3,joint1,joint4,joint5,joint6,-0.6574654972683308,1.1842058708465417,0.0012217304815975172,0.00017453292129831807,-0.003316125537177334,-3.12413936106985,0.0,0.0,0.0,0.0,0.0,0.0,nan,nan,nan,nan,nan,nan
1738061236,181571384,,joint2,joint3,joint1,joint4,joint5,joint6,-0.6574654972683308,1.1705923239862746,0.0012217304815975172,0.00017453292129831807,-0.003316125537177334,-3.12413936106985,0.0,-0.6807347970302277,0.0,0.0,0.0,0.0,nan,nan,nan,nan,nan,nan
1738061236,201591237,,joint2,joint3,joint1,joint4,joint5,joint6,-0.6574654972683308,1.1526154539960216,0.0012217304815975172,0.00017453292129831807,-0.003316125537177334,-3.12413936106985,0.0,-0.8979620151005238,0.0,0.0,0.0,0.0,nan,nan,nan,nan,nan,nan
1738061236,221584858,,joint2,joint3,joint1,joint4,joint5,joint6,-0.6574654972683308,1.1480775606565812,0.0012217304815975172,0.00017453292129831807,-0.003316125537177334,-3.12413936106985,0.0,-0.22696705811520762,0.0,0.0,0.0,0.0,nan,nan,nan,nan,nan,nan
1738061236,241578801,,joint2,joint3,joint1,joint4,joint5,joint6,-0.6574654972683308,1.1480775606565812,0.0012217304815975172,0.00017453292129831807,-0.003316125537177334,-3.12413936106985,0.0,0.0,0.0,0.0,0.0,0.0,nan,nan,nan,nan,nan,nan
1738061236,261578313,,joint2,joint3,joint1,joint4,joint5,joint6,-0.6574654972683308,1.134638584005769,0.0012217304815975172,0.00017453292129831807,-0.003316125537177334,-3.12413936106985,0.0,-0.6718838949621662,0.0,0.0,0.0,0.0,nan,nan,nan,nan,nan,nan
1738061236,281572745,,joint2,joint3,joint1,joint4,joint5,joint6,-0.6574654972683308,1.117010721276371,0.0012217304815975172,0.00017453292129831807,-0.003316125537177334,-3.12413936106985,0.0,-0.881588364213154,0.0,0.0,0.0,0.0,nan,nan,nan,nan,nan,nan
1738061236,301581648,,joint2,joint3,joint1,joint4,joint5,joint6,-0.6574654972683308,1.1035716780465312,0.0012217304815975172,0.00017453292129831807,-0.003316125537177334,-3.12413936106985,0.0,-0.671650489674547,0.0,0.0,0.0,0.0,nan,nan,nan,nan,nan,nan
1738061236,321583640,,joint2,joint3,joint1,joint4,joint5,joint6,-0.6574654972683308,1.1035716780465312,0.0012217304815975172,0.00017453292129831807,-0.003316125537177334,-3.12413936106985,0.0,0.0,0.0,0.0,0.0,0.0,nan,nan,nan,nan,nan,nan
1738061236,341572852,,joint2,joint3,joint1,joint4,joint5,joint6,-0.6574654972683308,1.0992083549165454,0.0012217304815975172,0.00017453292129831807,-0.003316125537177334,-3.12413936106985,0.0,-0.2182830252309974,0.0,0.0,0.0,0.0,nan,nan,nan,nan,nan,nan
1738061236,361571484,,joint2,joint3,joint1,joint4,joint5,joint6,-0.6574654972683308,1.0862929557360426,0.0012217304815975172,0.00017453292129831807,-0.003316125537177334,-3.12413936106985,0.0,-0.6458134545613089,0.0,0.0,0.0,0.0,nan,nan,nan,nan,nan,nan
1738061236,381578917,,joint2,joint3,joint1,joint4,joint5,joint6,-0.6574654972683308,1.0862929557360426,0.0012217304815975172,0.00017453292129831807,-0.003316125537177334,-3.12413936106985,0.0,0.0,0.0,0.0,0.0,0.0,nan,nan,nan,nan,nan,nan
1738061236,401583080,,joint2,joint3,joint1,joint4,joint5,joint6,-0.6574654972683308,1.0698868181567187,0.0012217304815975172,0.00017453292129831807,-0.003316125537177334,-3.12413936106985,0.0,-0.8201890588078949,0.0,0.0,0.0,0.0,nan,nan,nan,nan,nan,nan
1738061236,421579051,,joint2,joint3,joint1,joint4,joint5,joint6,-0.6574654972683308,1.061509245736629,0.0012217304815975172,0.00017453292129831807,-0.003316125537177334,-3.12413936106985,0.0,-0.41894018426455915,0.0,0.0,0.0,0.0,nan,nan,nan,nan,nan,nan
1738061236,441580124,,joint2,joint3,joint1,joint4,joint5,joint6,-0.6574654972683308,1.049466497866318,0.0012217304815975172,0.00017453292129831807,-0.003316125537177334,-3.12413936106985,0.0,-0.6021451310804904,0.0,0.0,0.0,0.0,nan,nan,nan,nan,nan,nan
1738061236,461583866,,joint2,joint3,joint1,joint4,joint5,joint6,-0.6574654972683308,1.049466497866318,0.0012217304815975172,0.00017453292129831807,-0.003316125537177334,-3.12413936106985,0.0,0.0,0.0,0.0,0.0,0.0,nan,nan,nan,nan,nan,nan
1738061236,481580018,,joint2,joint3,joint1,joint4,joint5,joint6,-0.6574654972683308,1.0375982536264343,0.0012217304815975172,0.00017453292129831807,-0.003316125537177334,-3.12413936106985,0.0,-0.5935183924345886,0.0,0.0,0.0,0.0,nan,nan,nan,nan,nan,nan
1738061236,501577181,,joint2,joint3,joint1,joint4,joint5,joint6,-0.6574654972683308,1.0299187623070818,0.0012217304815975172,0.00017453292129831807,-0.003316125537177334,-3.12413936106985,0.0,-0.3839948600959824,0.0,0.0,0.0,0.0,nan,nan,nan,nan,nan,nan
1738061236,521582253,,joint2,joint3,joint1,joint4,joint5,joint6,-0.6574654972683308,1.018225088276653,0.0012217304815975172,0.00017453292129831807,-0.003316125537177334,-3.12413936106985,0.0,-0.5845196852977433,0.0,0.0,0.0,0.0,nan,nan,nan,nan,nan,nan
1738061236,541576876,,joint2,joint3,joint1,joint4,joint5,joint6,-0.6574654972683308,1.018225088276653,0.0012217304815975172,0.00017453292129831807,-0.003316125537177334,-3.12413936106985,0.0,0.0,0.0,0.0,0.0,0.0,nan,nan,nan,nan,nan,nan
1738061236,561577987,,joint2,joint3,joint1,joint4,joint5,joint6,-0.6574654972683308,1.0105456635363277,0.0012217304815975172,0.00017453292129831807,-0.003316125537177334,-3.12413936106985,0.0,-0.3839545157971044,0.0,0.0,0.0,0.0,nan,nan,nan,nan,nan,nan
1738061236,581575110,,joint2,joint3,joint1,joint4,joint5,joint6,-0.6574654972683308,0.9955358213165321,0.0012217304815975172,0.00017453292129831807,-0.003316125537177334,-3.12413936106985,0.0,-0.750557672202448,0.0,0.0,0.0,0.0,nan,nan,nan,nan,nan,nan
1738061236,601537733,,joint2,joint3,joint1,joint4,joint5,joint6,-0.6574654972683308,0.9955358213165321,0.0012217304815975172,0.00017453292129831807,-0.003316125537177334,-3.12413936106985,0.0,0.0,0.0,0.0,0.0,0.0,nan,nan,nan,nan,nan,nan
1738061236,621574684,,joint2,joint3,joint1,joint4,joint5,joint6,-0.6574654972683308,0.9883799740465165,0.0012217304815975172,0.00017453292129831807,-0.003316125537177334,-3.12413936106985,0.0,-0.3571366427678268,0.0,0.0,0.0,0.0,nan,nan,nan,nan,nan,nan
1738061236,641582857,,joint2,joint3,joint1,joint4,joint5,joint6,-0.6574654972683308,0.9777334549567066,0.0012217304815975172,0.00017453292129831807,-0.003316125537177334,-3.12413936106985,0.0,-0.5321526589770965,0.0,0.0,0.0,0.0,nan,nan,nan,nan,nan,nan
1738061236,661580209,,joint2,joint3,joint1,joint4,joint5,joint6,-0.6574654972683308,0.9707521113171184,0.0012217304815975172,0.00017453292129831807,-0.003316125537177334,-3.12413936106985,0.0,-0.34912525896624125,0.0,0.0,0.0,0.0,nan,nan,nan,nan,nan,nan
1738061236,681576811,,joint2,joint3,joint1,joint4,joint5,joint6,-0.6574654972683308,0.9707521113171184,0.0012217304815975172,0.00017453292129831807,-0.003316125537177334,-3.12413936106985,0.0,0.0,0.0,0.0,0.0,0.0,nan,nan,nan,nan,nan,nan
1738061236,701576494,,joint2,joint3,joint1,joint4,joint5,joint6,-0.6574654972683308,0.9604546660671909,0.0012217304815975172,0.00017453292129831807,-0.003316125537177334,-3.12413936106985,0.0,-0.5148878893438158,0.0,0.0,0.0,0.0,nan,nan,nan,nan,nan,nan
1738061236,721574186,,joint2,joint3,joint1,joint4,joint5,joint6,-0.6574654972683308,0.9506808648666,0.0012217304815975172,0.00017453292129831807,-0.003316125537177334,-3.12413936106985,0.0,-0.4887288651014342,0.0,0.0,0.0,0.0,nan,nan,nan,nan,nan,nan
1738061236,741579259,,joint2,joint3,joint1,joint4,joint5,joint6,-0.6574654972683308,0.9414305745572915,0.0012217304815975172,0.00017453292129831807,-0.003316125537177334,-3.12413936106985,0.0,-0.46247444205501903,0.0,0.0,0.0,0.0,nan,nan,nan,nan,nan,nan
1738061236,761577770,,joint2,joint3,joint1,joint4,joint5,joint6,-0.6574654972683308,0.9414305745572915,0.0012217304815975172,0.00017453292129831807,-0.003316125537177334,-3.12413936106985,0.0,0.0,0.0,0.0,0.0,0.0,nan,nan,nan,nan,nan,nan
1738061236,781576913,,joint2,joint3,joint1,joint4,joint5,joint6,-0.6574654972683308,0.9354964524373497,0.0012217304815975172,0.00017453292129831807,-0.003316125537177334,-3.12413936106985,0.0,-0.2967106605057298,0.0,0.0,0.0,0.0,nan,nan,nan,nan,nan,nan
1738061236,801574286,,joint2,joint3,joint1,joint4,joint5,joint6,-0.6574654972683308,0.9269443763868327,0.0012217304815975172,0.00017453292129831807,-0.003316125537177334,-3.12413936106985,0.0,-0.427653987721309,0.0,0.0,0.0,0.0,nan,nan,nan,nan,nan,nan
1738061236,821580237,,joint2,joint3,joint1,joint4,joint5,joint6,-0.6574654972683308,0.9189158778066254,0.0012217304815975172,0.00017453292129831807,-0.003316125537177334,-3.12413936106985,0.0,-0.4012784423149962,0.0,0.0,0.0,0.0,nan,nan,nan,nan,nan,nan
1738061236,841581580,,joint2,joint3,joint1,joint4,joint5,joint6,-0.6574654972683308,0.9189158778066254,0.0012217304815975172,0.00017453292129831807,-0.003316125537177334,-3.12413936106985,0.0,0.0,0.0,0.0,0.0,0.0,nan,nan,nan,nan,nan,nan
1738061236,861576592,,joint2,joint3,joint1,joint4,joint5,joint6,-0.6574654972683308,0.9136798367874206,0.0012217304815975172,0.00017453292129831807,-0.003316125537177334,-3.12413936106985,0.0,-0.2618414188175607,0.0,0.0,0.0,0.0,nan,nan,nan,nan,nan,nan
1738061236,881575475,,joint2,joint3,joint1,joint4,joint5,joint6,-0.6574654972683308,0.906523989517405,0.0012217304815975172,0.00017453292129831807,-0.003316125537177334,-3.12413936106985,0.0,-0.35780467198149685,0.0,0.0,0.0,0.0,nan,nan,nan,nan,nan,nan
1738061236,901575077,,joint2,joint3,joint1,joint4,joint5,joint6,-0.6574654972683308,0.906523989517405,0.0012217304815975172,0.00017453292129831807,-0.003316125537177334,-3.12413936106985,0.0,0.0,0.0,0.0,0.0,0.0,nan,nan,nan,nan,nan,nan
1738061236,921579279,,joint2,joint3,joint1,joint4,joint5,joint6,-0.6574654972683308,0.899542712456844,0.0012217304815975172,0.00017453292129831807,-0.003316125537177334,-3.12413936106985,0.0,-0.34900623209912807,0.0,0.0,0.0,0.0,nan,nan,nan,nan,nan,nan
1738061236,941573522,,joint2,joint3,joint1,joint4,joint5,joint6,-0.6574654972683308,0.8930849462875653,0.0012217304815975172,0.00017453292129831807,-0.003316125537177334,-3.12413936106985,0.0,-0.3229722327986294,0.0,0.0,0.0,0.0,nan,nan,nan,nan,nan,nan
1738061236,961574393,,joint2,joint3,joint1,joint4,joint5,joint6,-0.6574654972683308,0.8887216231575795,0.0012217304815975172,0.00017453292129831807,-0.003316125537177334,-3.12413936106985,0.0,-0.21815425618461387,0.0,0.0,0.0,0.0,nan,nan,nan,nan,nan,nan
1738061236,981575066,,joint2,joint3,joint1,joint4,joint5,joint6,-0.6574654972683308,0.8887216231575795,0.0012217304815975172,0.00017453292129831807,-0.003316125537177334,-3.12413936106985,0.0,0.0,0.0,0.0,0.0,0.0,nan,nan,nan,nan,nan,nan
1738061237,1593649,,joint2,joint3,joint1,joint4,joint5,joint6,-0.6574654972683308,0.8824384937767829,0.0012217304815975172,0.00017453292129831807,-0.003316125537177334,-3.12413936106985,0.0,-0.3138766009685799,0.0,0.0,0.0,0.0,nan,nan,nan,nan,nan,nan
1738061237,21587401,,joint2,joint3,joint1,joint4,joint5,joint6,-0.6574654972683308,0.8761552978169588,0.0012217304815975172,0.00017453292129831807,-0.003316125537177334,-3.12413936106985,0.0,-0.31424194083453777,0.0,0.0,0.0,0.0,nan,nan,nan,nan,nan,nan
1738061237,41574144,,joint2,joint3,joint1,joint4,joint5,joint6,-0.6574654972683308,0.8698721018571349,0.0012217304815975172,0.00017453292129831807,-0.003316125537177334,-3.12413936106985,0.0,-0.3143760415513736,0.0,0.0,0.0,0.0,nan,nan,nan,nan,nan,nan
1738061237,61548747,,joint2,joint3,joint1,joint4,joint5,joint6,-0.6574654972683308,0.8698721018571349,0.0012217304815975172,0.00017453292129831807,-0.003316125537177334,-3.12413936106985,0.0,0.0,0.0,0.0,0.0,0.0,nan,nan,nan,nan,nan,nan
1738061237,81581609,,joint2,joint3,joint1,joint4,joint5,joint6,-0.6574654972683308,0.8656832823575766,0.0012217304815975172,0.00017453292129831807,-0.003316125537177334,-3.12413936106985,0.0,-0.20909323202373603,0.0,0.0,0.0,0.0,nan,nan,nan,nan,nan,nan
1738061237,101577272,,joint2,joint3,joint1,joint4,joint5,joint6,-0.6574654972683308,0.8594001529767797,0.0012217304815975172,0.00017453292129831807,-0.003316125537177334,-3.12413936106985,0.0,-0.3142178514971346,0.0,0.0,0.0,0.0,nan,nan,nan,nan,nan,nan
1738061237,121575603,,joint2,joint3,joint1,joint4,joint5,joint6,-0.6574654972683308,0.8594001529767797,0.0012217304815975172,0.00017453292129831807,-0.003316125537177334,-3.12413936106985,0.0,0.0,0.0,0.0,0.0,0.0,nan,nan,nan,nan,nan,nan
1738061237,141574366,,joint2,joint3,joint1,joint4,joint5,joint6,-0.6574654972683308,0.8532914606473834,0.0012217304815975172,0.00017453292129831807,-0.003316125537177334,-3.12413936106985,0.0,-0.3054612985142437,0.0,0.0,0.0,0.0,nan,nan,nan,nan,nan,nan
1738061237,161574119,,joint2,joint3,joint1,joint4,joint5,joint6,-0.6574654972683308,0.8492772113572796,0.0012217304815975172,0.00017453292129831807,-0.003316125537177334,-3.12413936106985,0.0,-0.20071133048616996,0.0,0.0,0.0,0.0,nan,nan,nan,nan,nan,nan
1738061237,181578361,,joint2,joint3,joint1,joint4,joint5,joint6,-0.6574654972683308,0.8431685856069104,0.0012217304815975172,0.00017453292129831807,-0.003316125537177334,-3.12413936106985,0.0,-0.30536407688513706,0.0,0.0,0.0,0.0,nan,nan,nan,nan,nan,nan
1738061237,201575064,,joint2,joint3,joint1,joint4,joint5,joint6,-0.6574654972683308,0.8431685856069104,0.0012217304815975172,0.00017453292129831807,-0.003316125537177334,-3.12413936106985,0.0,0.0,0.0,0.0,0.0,0.0,nan,nan,nan,nan,nan,nan
1738061237,221578017,,joint2,joint3,joint1,joint4,joint5,joint6,-0.6574654972683308,0.8372344634869686,0.0012217304815975172,0.00017453292129831807,-0.003316125537177334,-3.12413936106985,0.0,-0.296656816467035,0.0,0.0,0.0,0.0,nan,nan,nan,nan,nan,nan
1738061237,241577299,,joint2,joint3,joint1,joint4,joint5,joint6,-0.6574654972683308,0.8313003413670267,0.0012217304815975172,0.00017453292129831807,-0.003316125537177334,-3.12413936106985,0.0,-0.2967464338374551,0.0,0.0,0.0,0.0,nan,nan,nan,nan,nan,nan
1738061237,261577172,,joint2,joint3,joint1,joint4,joint5,joint6,-0.6574654972683308,0.8258897967173946,0.0012217304815975172,0.00017453292129831807,-0.003316125537177334,-3.12413936106985,0.0,-0.2705124489762678,0.0,0.0,0.0,0.0,nan,nan,nan,nan,nan,nan
1738061237,281582894,,joint2,joint3,joint1,joint4,joint5,joint6,-0.6574654972683308,0.8258897967173946,0.0012217304815975172,0.00017453292129831807,-0.003316125537177334,-3.12413936106985,0.0,0.0,0.0,0.0,0.0,0.0,nan,nan,nan,nan,nan,nan
